Ball Tracking & Path Prediction/OpenCV (Ball Tracking)/C2 LUT.CUBE
#Generated by wwww.onlinelutcreator.com 
LUT_3D_SIZE 8 
DOMAIN_MIN 0.000000 0.000000 0.000000
DOMAIN_MAX 0.903226 0.903226 0.903226
0.000000 0.000000 0.000000
0.000000 0.000000 0.000000
0.000000 0.000000 0.000000
0.011765 0.000000 0.000000
0.074510 0.000000 0.000000
0.160784 0.000000 0.000000
0.262745 0.000000 0.000000
0.376471 0.000000 0.000000
0.000000 0.000000 0.000000
0.000000 0.000000 0.000000
0.000000 0.000000 0.000000
0.019608 0.000000 0.000000
0.086275 0.000000 0.000000
0.172549 0.000000 0.000000
0.270588 0.000000 0.000000
0.384314 0.000000 0.000000
0.000000 0.003922 0.000000
0.000000 0.003922 0.000000
0.003922 0.007843 0.000000
0.039216 0.007843 0.000000
0.105882 0.007843 0.000000
0.188235 0.000000 0.000000
0.286275 0.000000 0.000000
0.400000 0.000000 0.000000
0.000000 0.054902 0.000000
0.000000 0.054902 0.000000
0.000000 0.058824 0.000000
0.054902 0.066667 0.000000
0.129412 0.070588 0.000000
0.211765 0.074510 0.000000
0.309804 0.070588 0.000000
0.423529 0.050980 0.000000
0.000000 0.145098 0.000000
0.000000 0.149020 0.000000
0.000000 0.152941 0.000000
0.062745 0.156863 0.000000
0.149020 0.164706 0.000000
0.239216 0.172549 0.000000
0.341176 0.176471 0.000000
0.454902 0.176471 0.000000
0.000000 0.258824 0.000000
0.000000 0.258824 0.000000
0.000000 0.262745 0.000000
0.043137 0.266667 0.000000
0.164706 0.274510 0.000000
0.266667 0.282353 0.000000
0.372549 0.290196 0.000000
0.490196 0.298039 0.000000
0.000000 0.388235 0.000000
0.000000 0.392157 0.000000
0.000000 0.396078 0.000000
0.000000 0.400000 0.000000
0.156863 0.407843 0.000000
0.282353 0.415686 0.000000
0.400000 0.423529 0.000000
0.525490 0.435294 0.000000
0.000000 0.545098 0.000000
0.000000 0.545098 0.000000
0.000000 0.549020 0.000000
0.000000 0.552941 0.000000
0.109804 0.560784 0.000000
0.286275 0.568627 0.000000
0.423529 0.580392 0.000000
0.556863 0.588235 0.000000
0.000000 0.000000 0.000000
0.000000 0.000000 0.000000
0.000000 0.000000 0.000000
0.011765 0.000000 0.000000
0.078431 0.000000 0.000000
0.164706 0.000000 0.000000
0.266667 0.000000 0.000000
0.380392 0.000000 0.000000
0.000000 0.000000 0.000000
0.000000 0.000000 0.000000
0.000000 0.000000 0.000000
0.023529 0.000000 0.000000
0.090196 0.000000 0.000000
0.172549 0.000000 0.000000
0.274510 0.000000 0.000000
0.388235 0.000000 0.000000
0.000000 0.003922 0.000000
0.000000 0.003922 0.000000
0.003922 0.007843 0.000000
0.043137 0.007843 0.000000
0.109804 0.003922 0.000000
0.192157 0.000000 0.000000
0.290196 0.000000 0.000000
0.403922 0.000000 0.000000
0.000000 0.054902 0.000000
0.000000 0.058824 0.000000
0.003922 0.062745 0.000000
0.058824 0.066667 0.000000
0.133333 0.070588 0.000000
0.215686 0.074510 0.000000
0.313725 0.070588 0.000000
0.427451 0.050980 0.000000
0.000000 0.145098 0.000000
0.000000 0.149020 0.000000
0.000000 0.152941 0.000000
0.066667 0.156863 0.000000
0.152941 0.164706 0.000000
0.243137 0.172549 0.000000
0.345098 0.176471 0.000000
0.458824 0.176471 0.000000
0.000000 0.258824 0.000000
0.000000 0.258824 0.000000
0.000000 0.262745 0.000000
0.047059 0.266667 0.000000
0.164706 0.274510 0.000000
0.266667 0.282353 0.000000
0.372549 0.290196 0.000000
0.494118 0.298039 0.000000
0.000000 0.392157 0.000000
0.000000 0.392157 0.000000
0.000000 0.396078 0.000000
0.000000 0.400000 0.000000
0.160784 0.407843 0.000000
0.282353 0.415686 0.000000
0.403922 0.427451 0.000000
0.529412 0.435294 0.000000
0.000000 0.545098 0.000000
0.000000 0.545098 0.000000
0.000000 0.549020 0.000000
0.000000 0.552941 0.000000
0.117647 0.560784 0.000000
0.286275 0.568627 0.000000
0.423529 0.580392 0.000000
0.560784 0.588235 0.000000
0.000000 0.000000 0.000000
0.000000 0.000000 0.000000
0.000000 0.000000 0.000000
0.015686 0.000000 0.003922
0.086275 0.000000 0.003922
0.168627 0.000000 0.007843
0.270588 0.000000 0.015686
0.384314 0.000000 0.019608
0.000000 0.000000 0.000000
0.000000 0.000000 0.000000
0.000000 0.000000 0.003922
0.027451 0.000000 0.003922
0.098039 0.000000 0.007843
0.180392 0.000000 0.011765
0.278431 0.000000 0.015686
0.392157 0.000000 0.023529
0.000000 0.003922 0.003922
0.000000 0.003922 0.003922
0.007843 0.007843 0.007843
0.047059 0.007843 0.007843
0.113725 0.003922 0.011765
0.196078 0.000000 0.015686
0.294118 0.000000 0.019608
0.407843 0.000000 0.027451
0.000000 0.054902 0.011765
0.000000 0.058824 0.011765
0.007843 0.062745 0.011765
0.062745 0.066667 0.011765
0.137255 0.070588 0.015686
0.219608 0.074510 0.019608
0.317647 0.070588 0.027451
0.431373 0.050980 0.035294
0.000000 0.149020 0.011765
0.000000 0.149020 0.015686
0.000000 0.152941 0.015686
0.074510 0.156863 0.019608
0.156863 0.164706 0.019608
0.247059 0.172549 0.027451
0.349020 0.176471 0.035294
0.462745 0.176471 0.043137
0.000000 0.258824 0.011765
0.000000 0.258824 0.011765
0.000000 0.262745 0.015686
0.054902 0.270588 0.015686
0.172549 0.274510 0.019608
0.270588 0.286275 0.027451
0.380392 0.294118 0.035294
0.498039 0.298039 0.047059
0.000000 0.392157 0.000000
0.000000 0.392157 0.000000
0.000000 0.396078 0.000000
0.000000 0.400000 0.003922
0.168627 0.407843 0.011765
0.290196 0.415686 0.015686
0.407843 0.427451 0.027451
0.533333 0.435294 0.039216
0.000000 0.545098 0.000000
0.000000 0.545098 0.000000
0.000000 0.549020 0.000000
0.000000 0.552941 0.000000
0.125490 0.560784 0.000000
0.294118 0.568627 0.000000
0.427451 0.580392 0.000000
0.564706 0.592157 0.015686
0.000000 0.000000 0.019608
0.000000 0.000000 0.019608
0.000000 0.000000 0.027451
0.019608 0.000000 0.035294
0.094118 0.000000 0.043137
0.176471 0.000000 0.054902
0.278431 0.000000 0.066667
0.392157 0.000000 0.078431
0.000000 0.000000 0.027451
0.000000 0.000000 0.031373
0.000000 0.000000 0.039216
0.031373 0.000000 0.043137
0.101961 0.000000 0.050980
0.188235 0.000000 0.058824
0.286275 0.000000 0.070588
0.400000 0.000000 0.082353
0.000000 0.003922 0.043137
0.000000 0.007843 0.047059
0.003922 0.007843 0.050980
0.050980 0.007843 0.054902
0.121569 0.003922 0.058824
0.203922 0.000000 0.070588
0.301961 0.000000 0.078431
0.415686 0.000000 0.090196
0.000000 0.058824 0.062745
0.000000 0.058824 0.062745
0.003922 0.062745 0.062745
0.066667 0.066667 0.066667
0.141176 0.074510 0.074510
0.227451 0.074510 0.082353
0.325490 0.070588 0.090196
0.439216 0.047059 0.101961
0.000000 0.149020 0.078431
0.000000 0.149020 0.078431
0.000000 0.152941 0.082353
0.078431 0.160784 0.086275
0.164706 0.164706 0.090196
0.254902 0.172549 0.098039
0.352941 0.176471 0.105882
0.470588 0.176471 0.113725
0.000000 0.258824 0.094118
0.000000 0.262745 0.094118
0.000000 0.266667 0.098039
0.066667 0.270588 0.098039
0.176471 0.278431 0.105882
0.278431 0.286275 0.109804
0.384314 0.294118 0.117647
0.501961 0.301961 0.129412
0.000000 0.392157 0.105882
0.000000 0.396078 0.105882
0.000000 0.396078 0.109804
0.000000 0.403922 0.113725
0.176471 0.407843 0.117647
0.294118 0.419608 0.121569
0.411765 0.427451 0.129412
0.537255 0.435294 0.141176
0.000000 0.545098 0.113725
0.000000 0.549020 0.113725
0.000000 0.549020 0.113725
0.000000 0.556863 0.117647
0.141176 0.560784 0.121569
0.301961 0.572549 0.129412
0.435294 0.580392 0.137255
0.568627 0.592157 0.149020
0.000000 0.000000 0.094118
0.000000 0.000000 0.098039
0.000000 0.000000 0.101961
0.007843 0.000000 0.113725
0.094118 0.000000 0.117647
0.184314 0.000000 0.129412
0.286275 0.000000 0.141176
0.400000 0.000000 0.152941
0.000000 0.000000 0.105882
0.000000 0.000000 0.109804
0.000000 0.000000 0.113725
0.019608 0.000000 0.117647
0.105882 0.000000 0.125490
0.192157 0.000000 0.133333
0.294118 0.000000 0.145098
0.407843 0.000000 0.156863
0.000000 0.007843 0.117647
0.000000 0.007843 0.121569
0.000000 0.007843 0.121569
0.043137 0.007843 0.129412
0.121569 0.003922 0.133333
0.207843 0.000000 0.141176
0.309804 0.000000 0.152941
0.423529 0.000000 0.164706
0.000000 0.062745 0.137255
0.000000 0.062745 0.137255
0.000000 0.066667 0.137255
0.062745 0.070588 0.145098
0.145098 0.074510 0.149020
0.231373 0.074510 0.156863
0.333333 0.066667 0.164706
0.447059 0.043137 0.176471
0.000000 0.152941 0.156863
0.000000 0.152941 0.156863
0.000000 0.156863 0.156863
0.078431 0.160784 0.160784
0.168627 0.168627 0.168627
0.258824 0.172549 0.172549
0.360784 0.176471 0.184314
0.478431 0.176471 0.192157
0.000000 0.262745 0.176471
0.000000 0.262745 0.176471
0.000000 0.266667 0.180392
0.070588 0.274510 0.184314
0.184314 0.278431 0.188235
0.286275 0.286275 0.196078
0.392157 0.294118 0.203922
0.509804 0.301961 0.211765
0.000000 0.396078 0.200000
0.000000 0.396078 0.200000
0.000000 0.400000 0.200000
0.000000 0.403922 0.203922
0.184314 0.411765 0.207843
0.301961 0.419608 0.215686
0.419608 0.427451 0.223529
0.545098 0.439216 0.231373
0.000000 0.549020 0.215686
0.000000 0.549020 0.219608
0.000000 0.552941 0.219608
0.000000 0.556863 0.223529
0.152941 0.564706 0.227451
0.309804 0.572549 0.231373
0.443137 0.580392 0.239216
0.576471 0.592157 0.250980
0.000000 0.000000 0.192157
0.000000 0.000000 0.192157
0.000000 0.000000 0.200000
0.000000 0.000000 0.203922
0.082353 0.000000 0.211765
0.184314 0.000000 0.219608
0.294118 0.000000 0.231373
0.411765 0.000000 0.243137
0.000000 0.000000 0.200000
0.000000 0.000000 0.200000
0.000000 0.000000 0.203922
0.000000 0.000000 0.207843
0.094118 0.000000 0.215686
0.196078 0.000000 0.223529
0.301961 0.000000 0.235294
0.415686 0.000000 0.247059
0.000000 0.007843 0.211765
0.000000 0.007843 0.211765
0.000000 0.007843 0.215686
0.003922 0.003922 0.219608
0.113725 0.000000 0.223529
0.211765 0.000000 0.231373
0.317647 0.000000 0.243137
0.431373 0.000000 0.254902
0.000000 0.062745 0.227451
0.000000 0.066667 0.227451
0.000000 0.066667 0.231373
0.035294 0.070588 0.235294
0.141176 0.074510 0.239216
0.235294 0.074510 0.247059
0.341176 0.062745 0.254902
0.454902 0.035294 0.266667
0.000000 0.152941 0.247059
0.000000 0.156863 0.247059
0.000000 0.160784 0.250980
0.058824 0.164706 0.254902
0.164706 0.168627 0.258824
0.262745 0.172549 0.266667
0.368627 0.176471 0.274510
0.486275 0.176471 0.286275
0.000000 0.266667 0.270588
0.000000 0.266667 0.270588
0.000000 0.270588 0.274510
0.054902 0.274510 0.278431
0.184314 0.282353 0.282353
0.290196 0.290196 0.290196
0.400000 0.294118 0.298039
0.517647 0.301961 0.305882
0.000000 0.396078 0.298039
0.000000 0.400000 0.298039
0.000000 0.403922 0.298039
0.000000 0.407843 0.301961
0.184314 0.411765 0.305882
0.309804 0.423529 0.313725
0.427451 0.431373 0.321569
0.552941 0.439216 0.329412
0.000000 0.549020 0.321569
0.000000 0.552941 0.325490
0.000000 0.556863 0.325490
0.000000 0.560784 0.329412
0.160784 0.564706 0.333333
0.317647 0.576471 0.337255
0.450980 0.584314 0.345098
0.588235 0.596078 0.352941
0.000000 0.000000 0.301961
0.000000 0.000000 0.305882
0.000000 0.000000 0.309804
0.000000 0.000000 0.313725
0.019608 0.000000 0.317647
0.172549 0.000000 0.325490
0.294118 0.000000 0.337255
0.415686 0.000000 0.349020
0.000000 0.000000 0.309804
0.000000 0.000000 0.309804
0.000000 0.000000 0.313725
0.000000 0.000000 0.317647
0.043137 0.000000 0.321569
0.184314 0.000000 0.333333
0.301961 0.000000 0.341176
0.423529 0.000000 0.352941
0.000000 0.003922 0.317647
0.000000 0.003922 0.321569
0.000000 0.003922 0.321569
0.000000 0.003922 0.325490
0.078431 0.000000 0.333333
0.203922 0.000000 0.341176
0.317647 0.000000 0.349020
0.439216 0.000000 0.360784
0.000000 0.066667 0.333333
0.000000 0.066667 0.337255
0.000000 0.070588 0.337255
0.000000 0.070588 0.341176
0.113725 0.074510 0.349020
0.227451 0.070588 0.352941
0.341176 0.058824 0.364706
0.462745 0.027451 0.376471
0.000000 0.156863 0.356863
0.000000 0.160784 0.356863
0.000000 0.160784 0.356863
0.000000 0.164706 0.360784
0.145098 0.172549 0.368627
0.258824 0.176471 0.372549
0.372549 0.176471 0.384314
0.490196 0.176471 0.392157
0.000000 0.270588 0.380392
0.000000 0.270588 0.380392
0.000000 0.274510 0.384314
0.000000 0.278431 0.384314
0.168627 0.282353 0.392157
0.286275 0.290196 0.396078
0.403922 0.298039 0.407843
0.525490 0.301961 0.415686
0.000000 0.400000 0.407843
0.000000 0.403922 0.407843
0.000000 0.403922 0.411765
0.000000 0.411765 0.415686
0.176471 0.415686 0.419608
0.309804 0.423529 0.423529
0.431373 0.431373 0.431373
0.560784 0.443137 0.443137
0.000000 0.552941 0.439216
0.000000 0.556863 0.439216
0.000000 0.556863 0.439216
0.000000 0.564706 0.443137
0.152941 0.568627 0.447059
0.317647 0.576471 0.454902
0.458824 0.588235 0.462745
0.596078 0.596078 0.470588
0.000000 0.000000 0.431373
0.000000 0.000000 0.431373
0.000000 0.000000 0.435294
0.000000 0.000000 0.439216
0.000000 0.000000 0.443137
0.137255 0.000000 0.450980
0.282353 0.000000 0.462745
0.415686 0.000000 0.474510
0.000000 0.000000 0.435294
0.000000 0.000000 0.439216
0.000000 0.000000 0.439216
0.000000 0.000000 0.443137
0.000000 0.000000 0.450980
0.149020 0.000000 0.454902
0.290196 0.000000 0.466667
0.423529 0.000000 0.478431
0.000000 0.003922 0.447059
0.000000 0.003922 0.447059
0.000000 0.000000 0.447059
0.000000 0.000000 0.450980
0.000000 0.000000 0.458824
0.172549 0.000000 0.466667
0.309804 0.000000 0.474510
0.439216 0.000000 0.486275
0.000000 0.066667 0.458824
0.000000 0.070588 0.462745
0.000000 0.070588 0.462745
0.000000 0.070588 0.466667
0.011765 0.070588 0.470588
0.203922 0.066667 0.478431
0.333333 0.050980 0.490196
0.462745 0.011765 0.498039
0.000000 0.160784 0.478431
0.000000 0.164706 0.482353
0.000000 0.164706 0.482353
0.000000 0.168627 0.486275
0.086275 0.172549 0.490196
0.239216 0.176471 0.498039
0.364706 0.176471 0.505882
0.494118 0.172549 0.517647
0.000000 0.274510 0.505882
0.000000 0.274510 0.505882
0.000000 0.278431 0.509804
0.000000 0.282353 0.509804
0.125490 0.286275 0.517647
0.270588 0.294118 0.521569
0.400000 0.298039 0.529412
0.529412 0.301961 0.541176
0.000000 0.403922 0.533333
0.000000 0.407843 0.537255
0.000000 0.407843 0.537255
0.000000 0.415686 0.541176
0.141176 0.419608 0.545098
0.298039 0.427451 0.552941
0.431373 0.435294 0.560784
0.564706 0.443137 0.568627
0.000000 0.556863 0.568627
0.000000 0.560784 0.568627
0.000000 0.560784 0.568627
0.000000 0.568627 0.572549
0.121569 0.572549 0.576471
0.313725 0.580392 0.584314
0.458824 0.588235 0.592157
0.600000 0.600000 0.600000
