Ball Tracking & Path Prediction/OpenCV (Ball Tracking)/C2 LUT.CUBE
#Generated by wwww.onlinelutcreator.com 
LUT_3D_SIZE 32 
0.000000 0.000000 0.000000
0.000000 0.000000 0.000000
0.000000 0.000000 0.000000
0.000000 0.000000 0.000000
0.000000 0.000000 0.000000
0.000000 0.000000 0.000000
0.000000 0.000000 0.000000
0.000000 0.000000 0.000000
0.000000 0.000000 0.000000
0.000000 0.000000 0.000000
0.000000 0.000000 0.000000
0.003922 0.000000 0.000000
0.011765 0.000000 0.000000
0.019608 0.000000 0.000000
0.039216 0.000000 0.000000
0.058824 0.000000 0.000000
0.074510 0.000000 0.000000
0.098039 0.000000 0.000000
0.117647 0.000000 0.000000
0.141176 0.000000 0.000000
0.160784 0.000000 0.000000
0.184314 0.000000 0.000000
0.211765 0.000000 0.000000
0.235294 0.000000 0.000000
0.262745 0.000000 0.000000
0.290196 0.000000 0.000000
0.317647 0.000000 0.000000
0.349020 0.000000 0.000000
0.376471 0.000000 0.000000
0.407843 0.000000 0.000000
0.443137 0.000000 0.000000
0.474510 0.000000 0.000000
0.000000 0.000000 0.000000
0.000000 0.000000 0.000000
0.000000 0.000000 0.000000
0.000000 0.000000 0.000000
0.000000 0.000000 0.000000
0.000000 0.000000 0.000000
0.000000 0.000000 0.000000
0.000000 0.000000 0.000000
0.000000 0.000000 0.000000
0.000000 0.000000 0.000000
0.000000 0.000000 0.000000
0.003922 0.000000 0.000000
0.011765 0.000000 0.000000
0.023529 0.000000 0.000000
0.043137 0.000000 0.000000
0.058824 0.000000 0.000000
0.078431 0.000000 0.000000
0.098039 0.000000 0.000000
0.121569 0.000000 0.000000
0.141176 0.000000 0.000000
0.164706 0.000000 0.000000
0.188235 0.000000 0.000000
0.211765 0.000000 0.000000
0.239216 0.000000 0.000000
0.262745 0.000000 0.000000
0.290196 0.000000 0.000000
0.321569 0.000000 0.000000
0.349020 0.000000 0.000000
0.380392 0.000000 0.000000
0.411765 0.000000 0.000000
0.443137 0.000000 0.000000
0.474510 0.000000 0.000000
0.000000 0.000000 0.000000
0.000000 0.000000 0.000000
0.000000 0.000000 0.000000
0.000000 0.000000 0.000000
0.000000 0.000000 0.000000
0.000000 0.000000 0.000000
0.000000 0.000000 0.000000
0.000000 0.000000 0.000000
0.000000 0.000000 0.000000
0.000000 0.000000 0.000000
0.003922 0.000000 0.000000
0.007843 0.000000 0.000000
0.015686 0.000000 0.000000
0.027451 0.000000 0.000000
0.043137 0.000000 0.000000
0.062745 0.000000 0.000000
0.082353 0.000000 0.000000
0.101961 0.000000 0.000000
0.121569 0.000000 0.000000
0.145098 0.000000 0.000000
0.164706 0.000000 0.000000
0.188235 0.000000 0.000000
0.215686 0.000000 0.000000
0.239216 0.000000 0.000000
0.266667 0.000000 0.000000
0.294118 0.000000 0.000000
0.321569 0.000000 0.000000
0.349020 0.000000 0.000000
0.380392 0.000000 0.000000
0.411765 0.000000 0.000000
0.443137 0.000000 0.000000
0.478431 0.000000 0.000000
0.000000 0.000000 0.000000
0.000000 0.000000 0.000000
0.000000 0.000000 0.000000
0.000000 0.000000 0.000000
0.000000 0.000000 0.000000
0.000000 0.000000 0.000000
0.000000 0.000000 0.000000
0.000000 0.000000 0.000000
0.000000 0.000000 0.000000
0.000000 0.000000 0.000000
0.003922 0.000000 0.000000
0.007843 0.000000 0.000000
0.019608 0.000000 0.000000
0.031373 0.000000 0.000000
0.047059 0.000000 0.000000
0.066667 0.000000 0.000000
0.082353 0.000000 0.000000
0.101961 0.000000 0.000000
0.125490 0.000000 0.000000
0.145098 0.000000 0.000000
0.168627 0.000000 0.000000
0.192157 0.000000 0.000000
0.215686 0.000000 0.000000
0.243137 0.000000 0.000000
0.266667 0.000000 0.000000
0.294118 0.000000 0.000000
0.325490 0.000000 0.000000
0.352941 0.000000 0.000000
0.384314 0.000000 0.000000
0.415686 0.000000 0.000000
0.447059 0.000000 0.000000
0.478431 0.000000 0.000000
0.000000 0.000000 0.000000
0.000000 0.000000 0.000000
0.000000 0.000000 0.000000
0.000000 0.000000 0.000000
0.000000 0.000000 0.000000
0.000000 0.000000 0.000000
0.000000 0.000000 0.000000
0.000000 0.000000 0.000000
0.000000 0.000000 0.000000
0.003922 0.000000 0.000000
0.007843 0.000000 0.000000
0.011765 0.000000 0.000000
0.019608 0.000000 0.000000
0.035294 0.000000 0.000000
0.050980 0.000000 0.000000
0.066667 0.000000 0.000000
0.086275 0.000000 0.000000
0.105882 0.000000 0.000000
0.125490 0.000000 0.000000
0.149020 0.000000 0.000000
0.172549 0.000000 0.000000
0.196078 0.000000 0.000000
0.219608 0.000000 0.000000
0.243137 0.000000 0.000000
0.270588 0.000000 0.000000
0.298039 0.000000 0.000000
0.325490 0.000000 0.000000
0.356863 0.000000 0.000000
0.384314 0.000000 0.000000
0.415686 0.000000 0.000000
0.447059 0.000000 0.000000
0.482353 0.000000 0.000000
0.000000 0.000000 0.000000
0.000000 0.000000 0.000000
0.000000 0.000000 0.000000
0.000000 0.000000 0.000000
0.000000 0.000000 0.000000
0.000000 0.000000 0.000000
0.000000 0.000000 0.000000
0.000000 0.000000 0.000000
0.000000 0.000000 0.000000
0.003922 0.000000 0.000000
0.007843 0.000000 0.000000
0.015686 0.000000 0.000000
0.023529 0.000000 0.000000
0.039216 0.000000 0.000000
0.054902 0.000000 0.000000
0.074510 0.000000 0.000000
0.090196 0.000000 0.000000
0.109804 0.000000 0.000000
0.129412 0.000000 0.000000
0.152941 0.000000 0.000000
0.176471 0.000000 0.000000
0.200000 0.000000 0.000000
0.223529 0.000000 0.000000
0.247059 0.000000 0.000000
0.274510 0.000000 0.000000
0.301961 0.000000 0.000000
0.329412 0.000000 0.000000
0.356863 0.000000 0.000000
0.388235 0.000000 0.000000
0.419608 0.000000 0.000000
0.450980 0.000000 0.000000
0.486275 0.000000 0.000000
0.000000 0.000000 0.000000
0.000000 0.000000 0.000000
0.000000 0.000000 0.000000
0.000000 0.000000 0.000000
0.000000 0.000000 0.000000
0.000000 0.000000 0.000000
0.000000 0.000000 0.000000
0.000000 0.000000 0.000000
0.003922 0.000000 0.000000
0.003922 0.000000 0.000000
0.011765 0.000000 0.000000
0.019608 0.000000 0.000000
0.027451 0.000000 0.000000
0.043137 0.000000 0.000000
0.058824 0.000000 0.000000
0.078431 0.000000 0.000000
0.094118 0.000000 0.000000
0.113725 0.000000 0.000000
0.137255 0.000000 0.000000
0.156863 0.000000 0.000000
0.180392 0.000000 0.000000
0.203922 0.000000 0.000000
0.227451 0.000000 0.000000
0.250980 0.000000 0.000000
0.278431 0.000000 0.000000
0.305882 0.000000 0.000000
0.333333 0.000000 0.000000
0.360784 0.000000 0.000000
0.392157 0.000000 0.000000
0.423529 0.000000 0.000000
0.454902 0.000000 0.000000
0.490196 0.000000 0.000000
0.000000 0.000000 0.000000
0.000000 0.000000 0.000000
0.000000 0.000000 0.000000
0.000000 0.000000 0.000000
0.000000 0.000000 0.000000
0.000000 0.000000 0.000000
0.000000 0.000000 0.000000
0.000000 0.003922 0.000000
0.003922 0.003922 0.000000
0.007843 0.003922 0.000000
0.011765 0.003922 0.000000
0.019608 0.003922 0.000000
0.031373 0.003922 0.000000
0.047059 0.000000 0.000000
0.066667 0.000000 0.000000
0.082353 0.000000 0.000000
0.101961 0.000000 0.000000
0.121569 0.000000 0.000000
0.141176 0.000000 0.000000
0.160784 0.000000 0.000000
0.184314 0.000000 0.000000
0.207843 0.000000 0.000000
0.231373 0.000000 0.000000
0.254902 0.000000 0.000000
0.282353 0.000000 0.000000
0.309804 0.000000 0.000000
0.337255 0.000000 0.000000
0.364706 0.000000 0.000000
0.396078 0.000000 0.000000
0.427451 0.000000 0.000000
0.458824 0.000000 0.000000
0.494118 0.000000 0.000000
0.000000 0.003922 0.000000
0.000000 0.003922 0.000000
0.000000 0.003922 0.000000
0.000000 0.003922 0.000000
0.000000 0.003922 0.000000
0.000000 0.003922 0.000000
0.000000 0.003922 0.000000
0.000000 0.007843 0.000000
0.003922 0.007843 0.000000
0.007843 0.007843 0.000000
0.015686 0.007843 0.000000
0.023529 0.007843 0.000000
0.039216 0.007843 0.000000
0.054902 0.007843 0.000000
0.070588 0.007843 0.000000
0.086275 0.007843 0.000000
0.105882 0.007843 0.000000
0.125490 0.003922 0.000000
0.145098 0.003922 0.000000
0.168627 0.000000 0.000000
0.188235 0.000000 0.000000
0.211765 0.000000 0.000000
0.235294 0.000000 0.000000
0.262745 0.000000 0.000000
0.286275 0.000000 0.000000
0.313725 0.000000 0.000000
0.341176 0.000000 0.000000
0.372549 0.000000 0.000000
0.400000 0.000000 0.000000
0.431373 0.000000 0.000000
0.462745 0.000000 0.000000
0.498039 0.000000 0.000000
0.000000 0.007843 0.000000
0.000000 0.011765 0.000000
0.000000 0.011765 0.000000
0.000000 0.011765 0.000000
0.000000 0.011765 0.000000
0.000000 0.011765 0.000000
0.000000 0.011765 0.000000
0.000000 0.011765 0.000000
0.003922 0.011765 0.000000
0.011765 0.015686 0.000000
0.019608 0.015686 0.000000
0.027451 0.015686 0.000000
0.043137 0.015686 0.000000
0.058824 0.015686 0.000000
0.074510 0.015686 0.000000
0.094118 0.015686 0.000000
0.113725 0.015686 0.000000
0.129412 0.015686 0.000000
0.152941 0.015686 0.000000
0.172549 0.011765 0.000000
0.196078 0.011765 0.000000
0.219608 0.007843 0.000000
0.243137 0.003922 0.000000
0.266667 0.000000 0.000000
0.294118 0.000000 0.000000
0.321569 0.000000 0.000000
0.349020 0.000000 0.000000
0.376471 0.000000 0.000000
0.407843 0.000000 0.000000
0.439216 0.000000 0.000000
0.470588 0.000000 0.000000
0.501961 0.000000 0.000000
0.000000 0.019608 0.000000
0.000000 0.019608 0.000000
0.000000 0.019608 0.000000
0.000000 0.019608 0.000000
0.000000 0.019608 0.000000
0.000000 0.023529 0.000000
0.000000 0.023529 0.000000
0.000000 0.023529 0.000000
0.003922 0.023529 0.000000
0.011765 0.027451 0.000000
0.019608 0.027451 0.000000
0.031373 0.027451 0.000000
0.047059 0.027451 0.000000
0.062745 0.031373 0.000000
0.082353 0.031373 0.000000
0.098039 0.031373 0.000000
0.117647 0.031373 0.000000
0.137255 0.031373 0.000000
0.156863 0.031373 0.000000
0.180392 0.031373 0.000000
0.200000 0.027451 0.000000
0.223529 0.027451 0.000000
0.247059 0.023529 0.000000
0.274510 0.019608 0.000000
0.298039 0.011765 0.000000
0.325490 0.007843 0.000000
0.352941 0.000000 0.000000
0.384314 0.000000 0.000000
0.411765 0.000000 0.000000
0.443137 0.000000 0.000000
0.474510 0.000000 0.000000
0.505882 0.000000 0.000000
0.000000 0.035294 0.000000
0.000000 0.035294 0.000000
0.000000 0.035294 0.000000
0.000000 0.035294 0.000000
0.000000 0.035294 0.000000
0.000000 0.039216 0.000000
0.000000 0.039216 0.000000
0.000000 0.039216 0.000000
0.003922 0.039216 0.000000
0.011765 0.043137 0.000000
0.023529 0.043137 0.000000
0.035294 0.047059 0.000000
0.050980 0.047059 0.000000
0.070588 0.047059 0.000000
0.086275 0.050980 0.000000
0.105882 0.050980 0.000000
0.121569 0.050980 0.000000
0.141176 0.050980 0.000000
0.164706 0.050980 0.000000
0.184314 0.050980 0.000000
0.207843 0.050980 0.000000
0.231373 0.050980 0.000000
0.254902 0.047059 0.000000
0.278431 0.047059 0.000000
0.305882 0.043137 0.000000
0.333333 0.035294 0.000000
0.360784 0.027451 0.000000
0.388235 0.019608 0.000000
0.419608 0.011765 0.000000
0.450980 0.000000 0.000000
0.482353 0.000000 0.000000
0.513725 0.000000 0.000000
0.000000 0.054902 0.000000
0.000000 0.054902 0.000000
0.000000 0.054902 0.000000
0.000000 0.054902 0.000000
0.000000 0.054902 0.000000
0.000000 0.058824 0.000000
0.000000 0.058824 0.000000
0.000000 0.058824 0.000000
0.000000 0.058824 0.000000
0.011765 0.062745 0.000000
0.023529 0.062745 0.000000
0.039216 0.066667 0.000000
0.054902 0.066667 0.000000
0.074510 0.066667 0.000000
0.090196 0.070588 0.000000
0.109804 0.070588 0.000000
0.129412 0.070588 0.000000
0.149020 0.074510 0.000000
0.168627 0.074510 0.000000
0.192157 0.074510 0.000000
0.211765 0.074510 0.000000
0.235294 0.074510 0.000000
0.258824 0.074510 0.000000
0.286275 0.070588 0.000000
0.309804 0.070588 0.000000
0.337255 0.066667 0.000000
0.364706 0.062745 0.000000
0.396078 0.058824 0.000000
0.423529 0.050980 0.000000
0.454902 0.043137 0.000000
0.486275 0.031373 0.000000
0.521569 0.015686 0.000000
0.000000 0.074510 0.000000
0.000000 0.074510 0.000000
0.000000 0.074510 0.000000
0.000000 0.078431 0.000000
0.000000 0.078431 0.000000
0.000000 0.078431 0.000000
0.000000 0.078431 0.000000
0.000000 0.078431 0.000000
0.000000 0.082353 0.000000
0.007843 0.082353 0.000000
0.023529 0.082353 0.000000
0.039216 0.086275 0.000000
0.058824 0.086275 0.000000
0.078431 0.090196 0.000000
0.098039 0.090196 0.000000
0.113725 0.090196 0.000000
0.133333 0.094118 0.000000
0.156863 0.094118 0.000000
0.176471 0.094118 0.000000
0.196078 0.098039 0.000000
0.219608 0.098039 0.000000
0.243137 0.098039 0.000000
0.266667 0.098039 0.000000
0.294118 0.098039 0.000000
0.317647 0.098039 0.000000
0.345098 0.094118 0.000000
0.372549 0.094118 0.000000
0.403922 0.090196 0.000000
0.431373 0.086275 0.000000
0.462745 0.082353 0.000000
0.494118 0.074510 0.000000
0.529412 0.066667 0.000000
0.000000 0.098039 0.000000
0.000000 0.098039 0.000000
0.000000 0.098039 0.000000
0.000000 0.098039 0.000000
0.000000 0.098039 0.000000
0.000000 0.101961 0.000000
0.000000 0.101961 0.000000
0.000000 0.101961 0.000000
0.000000 0.101961 0.000000
0.007843 0.105882 0.000000
0.023529 0.105882 0.000000
0.043137 0.105882 0.000000
0.062745 0.109804 0.000000
0.082353 0.109804 0.000000
0.101961 0.113725 0.000000
0.121569 0.113725 0.000000
0.141176 0.113725 0.000000
0.160784 0.117647 0.000000
0.180392 0.117647 0.000000
0.203922 0.121569 0.000000
0.227451 0.121569 0.000000
0.250980 0.121569 0.000000
0.274510 0.121569 0.000000
0.298039 0.121569 0.000000
0.325490 0.121569 0.000000
0.352941 0.121569 0.000000
0.380392 0.121569 0.000000
0.411765 0.121569 0.000000
0.439216 0.117647 0.000000
0.470588 0.117647 0.000000
0.501961 0.113725 0.000000
0.537255 0.105882 0.000000
0.000000 0.121569 0.000000
0.000000 0.121569 0.000000
0.000000 0.121569 0.000000
0.000000 0.121569 0.000000
0.000000 0.121569 0.000000
0.000000 0.125490 0.000000
0.000000 0.125490 0.000000
0.000000 0.125490 0.000000
0.000000 0.125490 0.000000
0.000000 0.129412 0.000000
0.019608 0.129412 0.000000
0.043137 0.129412 0.000000
0.062745 0.133333 0.000000
0.086275 0.133333 0.000000
0.105882 0.137255 0.000000
0.125490 0.137255 0.000000
0.145098 0.137255 0.000000
0.164706 0.141176 0.000000
0.188235 0.141176 0.000000
0.211765 0.145098 0.000000
0.235294 0.145098 0.000000
0.258824 0.145098 0.000000
0.282353 0.149020 0.000000
0.305882 0.149020 0.000000
0.333333 0.149020 0.000000
0.360784 0.149020 0.000000
0.388235 0.149020 0.000000
0.419608 0.149020 0.000000
0.447059 0.149020 0.000000
0.478431 0.145098 0.000000
0.509804 0.145098 0.000000
0.545098 0.141176 0.000000
0.000000 0.145098 0.000000
0.000000 0.145098 0.000000
0.000000 0.145098 0.000000
0.000000 0.145098 0.000000
0.000000 0.149020 0.000000
0.000000 0.149020 0.000000
0.000000 0.149020 0.000000
0.000000 0.149020 0.000000
0.000000 0.152941 0.000000
0.000000 0.152941 0.000000
0.015686 0.152941 0.000000
0.039216 0.156863 0.000000
0.062745 0.156863 0.000000
0.086275 0.156863 0.000000
0.105882 0.160784 0.000000
0.129412 0.160784 0.000000
0.149020 0.164706 0.000000
0.172549 0.164706 0.000000
0.196078 0.168627 0.000000
0.215686 0.168627 0.000000
0.239216 0.172549 0.000000
0.262745 0.172549 0.000000
0.290196 0.172549 0.000000
0.313725 0.176471 0.000000
0.341176 0.176471 0.000000
0.368627 0.176471 0.000000
0.396078 0.176471 0.000000
0.427451 0.176471 0.000000
0.454902 0.176471 0.000000
0.486275 0.176471 0.000000
0.517647 0.176471 0.000000
0.552941 0.176471 0.000000
0.000000 0.172549 0.000000
0.000000 0.172549 0.000000
0.000000 0.172549 0.000000
0.000000 0.172549 0.000000
0.000000 0.172549 0.000000
0.000000 0.172549 0.000000
0.000000 0.176471 0.000000
0.000000 0.176471 0.000000
0.000000 0.176471 0.000000
0.000000 0.176471 0.000000
0.007843 0.180392 0.000000
0.035294 0.180392 0.000000
0.062745 0.184314 0.000000
0.086275 0.184314 0.000000
0.109804 0.184314 0.000000
0.133333 0.188235 0.000000
0.152941 0.188235 0.000000
0.176471 0.192157 0.000000
0.200000 0.192157 0.000000
0.223529 0.196078 0.000000
0.247059 0.196078 0.000000
0.270588 0.200000 0.000000
0.298039 0.200000 0.000000
0.321569 0.203922 0.000000
0.349020 0.203922 0.000000
0.376471 0.203922 0.000000
0.403922 0.207843 0.000000
0.435294 0.207843 0.000000
0.462745 0.207843 0.000000
0.494118 0.207843 0.000000
0.529412 0.207843 0.000000
0.560784 0.207843 0.000000
0.000000 0.200000 0.000000
0.000000 0.200000 0.000000
0.000000 0.200000 0.000000
0.000000 0.200000 0.000000
0.000000 0.200000 0.000000
0.000000 0.200000 0.000000
0.000000 0.203922 0.000000
0.000000 0.203922 0.000000
0.000000 0.203922 0.000000
0.000000 0.203922 0.000000
0.000000 0.207843 0.000000
0.027451 0.207843 0.000000
0.058824 0.211765 0.000000
0.086275 0.211765 0.000000
0.109804 0.211765 0.000000
0.133333 0.215686 0.000000
0.156863 0.215686 0.000000
0.180392 0.219608 0.000000
0.203922 0.219608 0.000000
0.227451 0.223529 0.000000
0.254902 0.223529 0.000000
0.278431 0.227451 0.000000
0.301961 0.227451 0.000000
0.329412 0.231373 0.000000
0.356863 0.231373 0.000000
0.384314 0.235294 0.000000
0.411765 0.235294 0.000000
0.443137 0.235294 0.000000
0.474510 0.235294 0.000000
0.505882 0.239216 0.000000
0.537255 0.239216 0.000000
0.568627 0.239216 0.000000
0.000000 0.227451 0.000000
0.000000 0.227451 0.000000
0.000000 0.227451 0.000000
0.000000 0.227451 0.000000
0.000000 0.227451 0.000000
0.000000 0.231373 0.000000
0.000000 0.231373 0.000000
0.000000 0.231373 0.000000
0.000000 0.231373 0.000000
0.000000 0.235294 0.000000
0.000000 0.235294 0.000000
0.015686 0.235294 0.000000
0.050980 0.239216 0.000000
0.082353 0.239216 0.000000
0.109804 0.243137 0.000000
0.137255 0.243137 0.000000
0.160784 0.247059 0.000000
0.184314 0.247059 0.000000
0.207843 0.250980 0.000000
0.235294 0.250980 0.000000
0.258824 0.254902 0.000000
0.286275 0.254902 0.000000
0.309804 0.258824 0.000000
0.337255 0.258824 0.000000
0.364706 0.262745 0.000000
0.392157 0.262745 0.000000
0.419608 0.266667 0.000000
0.450980 0.266667 0.000000
0.482353 0.266667 0.000000
0.513725 0.270588 0.000000
0.545098 0.270588 0.000000
0.580392 0.270588 0.000000
0.000000 0.258824 0.000000
0.000000 0.258824 0.000000
0.000000 0.258824 0.000000
0.000000 0.258824 0.000000
0.000000 0.258824 0.000000
0.000000 0.258824 0.000000
0.000000 0.258824 0.000000
0.000000 0.262745 0.000000
0.000000 0.262745 0.000000
0.000000 0.262745 0.000000
0.000000 0.266667 0.000000
0.000000 0.266667 0.000000
0.043137 0.266667 0.000000
0.078431 0.270588 0.000000
0.109804 0.270588 0.000000
0.137255 0.274510 0.000000
0.164706 0.274510 0.000000
0.188235 0.278431 0.000000
0.215686 0.278431 0.000000
0.239216 0.282353 0.000000
0.266667 0.282353 0.000000
0.290196 0.286275 0.000000
0.317647 0.286275 0.000000
0.345098 0.290196 0.000000
0.372549 0.290196 0.000000
0.400000 0.294118 0.000000
0.431373 0.294118 0.000000
0.458824 0.298039 0.000000
0.490196 0.298039 0.000000
0.521569 0.301961 0.000000
0.552941 0.301961 0.000000
0.588235 0.301961 0.000000
0.000000 0.290196 0.000000
0.000000 0.290196 0.000000
0.000000 0.290196 0.000000
0.000000 0.290196 0.000000
0.000000 0.290196 0.000000
0.000000 0.290196 0.000000
0.000000 0.290196 0.000000
0.000000 0.294118 0.000000
0.000000 0.294118 0.000000
0.000000 0.294118 0.000000
0.000000 0.294118 0.000000
0.000000 0.298039 0.000000
0.023529 0.298039 0.000000
0.070588 0.301961 0.000000
0.105882 0.301961 0.000000
0.137255 0.305882 0.000000
0.164706 0.305882 0.000000
0.192157 0.309804 0.000000
0.215686 0.309804 0.000000
0.243137 0.313725 0.000000
0.270588 0.313725 0.000000
0.298039 0.317647 0.000000
0.325490 0.317647 0.000000
0.352941 0.321569 0.000000
0.380392 0.321569 0.000000
0.407843 0.325490 0.000000
0.439216 0.329412 0.000000
0.466667 0.329412 0.000000
0.498039 0.333333 0.000000
0.529412 0.333333 0.000000
0.564706 0.333333 0.000000
0.596078 0.337255 0.000000
0.000000 0.321569 0.000000
0.000000 0.321569 0.000000
0.000000 0.321569 0.000000
0.000000 0.321569 0.000000
0.000000 0.321569 0.000000
0.000000 0.321569 0.000000
0.000000 0.325490 0.000000
0.000000 0.325490 0.000000
0.000000 0.325490 0.000000
0.000000 0.325490 0.000000
0.000000 0.329412 0.000000
0.000000 0.329412 0.000000
0.003922 0.329412 0.000000
0.058824 0.333333 0.000000
0.098039 0.333333 0.000000
0.133333 0.337255 0.000000
0.164706 0.337255 0.000000
0.192157 0.341176 0.000000
0.219608 0.341176 0.000000
0.247059 0.345098 0.000000
0.274510 0.345098 0.000000
0.301961 0.349020 0.000000
0.329412 0.352941 0.000000
0.356863 0.352941 0.000000
0.388235 0.356863 0.000000
0.415686 0.356863 0.000000
0.447059 0.360784 0.000000
0.478431 0.364706 0.000000
0.509804 0.364706 0.000000
0.541176 0.368627 0.000000
0.572549 0.368627 0.000000
0.607843 0.372549 0.000000
0.000000 0.352941 0.000000
0.000000 0.356863 0.000000
0.000000 0.356863 0.000000
0.000000 0.356863 0.000000
0.000000 0.356863 0.000000
0.000000 0.356863 0.000000
0.000000 0.356863 0.000000
0.000000 0.356863 0.000000
0.000000 0.360784 0.000000
0.000000 0.360784 0.000000
0.000000 0.360784 0.000000
0.000000 0.364706 0.000000
0.000000 0.364706 0.000000
0.039216 0.364706 0.000000
0.090196 0.368627 0.000000
0.129412 0.368627 0.000000
0.160784 0.372549 0.000000
0.192157 0.372549 0.000000
0.223529 0.376471 0.000000
0.250980 0.380392 0.000000
0.278431 0.380392 0.000000
0.305882 0.384314 0.000000
0.337255 0.384314 0.000000
0.364706 0.388235 0.000000
0.392157 0.392157 0.000000
0.423529 0.392157 0.000000
0.454902 0.396078 0.000000
0.486275 0.396078 0.000000
0.517647 0.400000 0.000000
0.549020 0.400000 0.000000
0.584314 0.403922 0.000000
0.615686 0.407843 0.000000
0.000000 0.388235 0.000000
0.000000 0.392157 0.000000
0.000000 0.392157 0.000000
0.000000 0.392157 0.000000
0.000000 0.392157 0.000000
0.000000 0.392157 0.000000
0.000000 0.392157 0.000000
0.000000 0.392157 0.000000
0.000000 0.396078 0.000000
0.000000 0.396078 0.000000
0.000000 0.396078 0.000000
0.000000 0.400000 0.000000
0.000000 0.400000 0.000000
0.007843 0.400000 0.000000
0.074510 0.403922 0.000000
0.121569 0.403922 0.000000
0.156863 0.407843 0.000000
0.192157 0.407843 0.000000
0.223529 0.411765 0.000000
0.250980 0.411765 0.000000
0.282353 0.415686 0.000000
0.309804 0.419608 0.000000
0.341176 0.419608 0.000000
0.368627 0.423529 0.000000
0.400000 0.423529 0.000000
0.431373 0.427451 0.000000
0.462745 0.431373 0.000000
0.494118 0.431373 0.000000
0.525490 0.435294 0.000000
0.556863 0.439216 0.000000
0.592157 0.439216 0.000000
0.627451 0.443137 0.000000
0.000000 0.427451 0.000000
0.000000 0.427451 0.000000
0.000000 0.427451 0.000000
0.000000 0.427451 0.000000
0.000000 0.427451 0.000000
0.000000 0.427451 0.000000
0.000000 0.427451 0.000000
0.000000 0.431373 0.000000
0.000000 0.431373 0.000000
0.000000 0.431373 0.000000
0.000000 0.431373 0.000000
0.000000 0.435294 0.000000
0.000000 0.435294 0.000000
0.000000 0.439216 0.000000
0.054902 0.439216 0.000000
0.109804 0.443137 0.000000
0.152941 0.443137 0.000000
0.188235 0.447059 0.000000
0.219608 0.447059 0.000000
0.254902 0.450980 0.000000
0.286275 0.450980 0.000000
0.313725 0.454902 0.000000
0.345098 0.454902 0.000000
0.376471 0.458824 0.000000
0.407843 0.462745 0.000000
0.439216 0.462745 0.000000
0.470588 0.466667 0.000000
0.501961 0.470588 0.000000
0.533333 0.470588 0.000000
0.568627 0.474510 0.000000
0.600000 0.478431 0.000000
0.635294 0.478431 0.000000
0.000000 0.462745 0.000000
0.000000 0.462745 0.000000
0.000000 0.462745 0.000000
0.000000 0.466667 0.000000
0.000000 0.466667 0.000000
0.000000 0.466667 0.000000
0.000000 0.466667 0.000000
0.000000 0.466667 0.000000
0.000000 0.466667 0.000000
0.000000 0.470588 0.000000
0.000000 0.470588 0.000000
0.000000 0.470588 0.000000
0.000000 0.474510 0.000000
0.000000 0.474510 0.000000
0.015686 0.478431 0.000000
0.094118 0.478431 0.000000
0.141176 0.482353 0.000000
0.184314 0.482353 0.000000
0.219608 0.486275 0.000000
0.254902 0.486275 0.000000
0.286275 0.490196 0.000000
0.317647 0.490196 0.000000
0.349020 0.494118 0.000000
0.380392 0.498039 0.000000
0.411765 0.498039 0.000000
0.443137 0.501961 0.000000
0.474510 0.505882 0.000000
0.509804 0.505882 0.000000
0.541176 0.509804 0.000000
0.576471 0.513725 0.000000
0.611765 0.513725 0.000000
0.647059 0.517647 0.000000
0.000000 0.501961 0.000000
0.000000 0.501961 0.000000
0.000000 0.501961 0.000000
0.000000 0.505882 0.000000
0.000000 0.505882 0.000000
0.000000 0.505882 0.000000
0.000000 0.505882 0.000000
0.000000 0.505882 0.000000
0.000000 0.505882 0.000000
0.000000 0.509804 0.000000
0.000000 0.509804 0.000000
0.000000 0.509804 0.000000
0.000000 0.513725 0.000000
0.000000 0.513725 0.000000
0.000000 0.517647 0.000000
0.066667 0.517647 0.000000
0.129412 0.517647 0.000000
0.176471 0.521569 0.000000
0.215686 0.525490 0.000000
0.250980 0.525490 0.000000
0.286275 0.529412 0.000000
0.317647 0.529412 0.000000
