Ball Tracking & Path Prediction/OpenCV (Ball Tracking)/C2 LUT.CUBE
#Generated by wwww.onlinelutcreator.com 
LUT_3D_SIZE 5 
DOMAIN_MIN 0.000000 0.000000 0.000000
DOMAIN_MAX 0.903226 0.903226 0.903226
0.000000 0.000000 0.000000
0.000000 0.000000 0.000000
0.039216 0.000000 0.000000
0.184314 0.000000 0.000000
0.376471 0.000000 0.000000
0.000000 0.000000 0.000000
0.000000 0.003922 0.000000
0.066667 0.000000 0.000000
0.207843 0.000000 0.000000
0.396078 0.000000 0.000000
0.000000 0.098039 0.000000
0.000000 0.101961 0.000000
0.101961 0.113725 0.000000
0.250980 0.121569 0.000000
0.439216 0.117647 0.000000
0.000000 0.290196 0.000000
0.000000 0.294118 0.000000
0.105882 0.301961 0.000000
0.298039 0.317647 0.000000
0.498039 0.333333 0.000000
0.000000 0.545098 0.000000
0.000000 0.545098 0.000000
0.000000 0.556863 0.000000
0.321569 0.572549 0.000000
0.556863 0.588235 0.000000
0.000000 0.000000 0.000000
0.000000 0.000000 0.000000
0.047059 0.000000 0.000000
0.192157 0.000000 0.003922
0.384314 0.000000 0.011765
0.000000 0.000000 0.000000
0.003922 0.003922 0.003922
0.070588 0.000000 0.003922
0.211765 0.000000 0.007843
0.400000 0.000000 0.015686
0.000000 0.098039 0.003922
0.000000 0.101961 0.003922
0.105882 0.113725 0.007843
0.254902 0.121569 0.015686
0.447059 0.117647 0.023529
0.000000 0.290196 0.000000
0.000000 0.294118 0.000000
0.113725 0.301961 0.000000
0.301961 0.317647 0.007843
0.505882 0.333333 0.019608
0.000000 0.545098 0.000000
0.000000 0.549020 0.000000
0.000000 0.556863 0.000000
0.325490 0.572549 0.000000
0.560784 0.592157 0.000000
0.000000 0.000000 0.050980
0.000000 0.000000 0.058824
0.054902 0.000000 0.074510
0.203922 0.000000 0.090196
0.396078 0.000000 0.113725
0.000000 0.000000 0.078431
0.000000 0.003922 0.078431
0.078431 0.000000 0.090196
0.223529 0.000000 0.101961
0.415686 0.000000 0.121569
0.000000 0.101961 0.105882
0.000000 0.105882 0.109804
0.113725 0.113725 0.113725
0.266667 0.121569 0.129412
0.458824 0.117647 0.145098
0.000000 0.294118 0.137255
0.000000 0.298039 0.141176
0.125490 0.305882 0.149020
0.313725 0.317647 0.156863
0.513725 0.333333 0.172549
0.000000 0.545098 0.164706
0.000000 0.549020 0.168627
0.000000 0.560784 0.172549
0.337255 0.572549 0.184314
0.572549 0.592157 0.200000
0.000000 0.000000 0.215686
0.000000 0.000000 0.223529
0.000000 0.000000 0.231373
0.211765 0.000000 0.247059
0.411765 0.000000 0.266667
0.000000 0.000000 0.231373
0.000000 0.000000 0.235294
0.043137 0.000000 0.243137
0.231373 0.000000 0.258824
0.431373 0.000000 0.278431
0.000000 0.105882 0.262745
0.000000 0.109804 0.262745
0.098039 0.117647 0.270588
0.274510 0.121569 0.282353
0.470588 0.113725 0.301961
0.000000 0.298039 0.301961
0.000000 0.301961 0.305882
0.121569 0.309804 0.309804
0.321569 0.321569 0.321569
0.529412 0.333333 0.337255
0.000000 0.552941 0.349020
0.000000 0.556863 0.352941
0.003922 0.564706 0.356863
0.352941 0.576471 0.368627
0.588235 0.596078 0.384314
0.000000 0.000000 0.431373
0.000000 0.000000 0.435294
0.000000 0.000000 0.443137
0.176471 0.000000 0.454902
0.415686 0.000000 0.474510
0.000000 0.000000 0.443137
0.000000 0.000000 0.443137
0.000000 0.000000 0.450980
0.203922 0.000000 0.466667
0.435294 0.000000 0.482353
0.000000 0.113725 0.470588
0.000000 0.113725 0.470588
0.000000 0.121569 0.478431
0.254902 0.121569 0.490196
0.478431 0.105882 0.509804
0.000000 0.305882 0.513725
0.000000 0.305882 0.513725
0.000000 0.313725 0.521569
0.313725 0.325490 0.533333
0.537255 0.337255 0.549020
0.000000 0.556863 0.568627
0.000000 0.560784 0.568627
0.000000 0.568627 0.576471
0.349020 0.584314 0.584314
0.600000 0.600000 0.600000
