Ball Tracking & Path Prediction/OpenCV (Ball Tracking)/Contrast LUT.CUBE
#Generated by wwww.onlinelutcreator.com 
LUT_3D_SIZE 32 
0.000000 0.000000 0.000000
0.000000 0.000000 0.000000
0.000000 0.000000 0.000000
0.000000 0.000000 0.000000
0.003922 0.000000 0.000000
0.007843 0.000000 0.000000
0.015686 0.000000 0.000000
0.027451 0.000000 0.000000
0.043137 0.000000 0.000000
0.066667 0.000000 0.000000
0.090196 0.000000 0.000000
0.117647 0.000000 0.000000
0.145098 0.000000 0.000000
0.172549 0.000000 0.000000
0.203922 0.000000 0.000000
0.239216 0.000000 0.000000
0.274510 0.000000 0.003922
0.313725 0.000000 0.003922
0.352941 0.000000 0.003922
0.396078 0.000000 0.003922
0.443137 0.000000 0.003922
0.490196 0.000000 0.007843
0.537255 0.000000 0.007843
0.588235 0.000000 0.011765
0.643137 0.000000 0.011765
0.698039 0.000000 0.015686
0.752941 0.000000 0.019608
0.811765 0.000000 0.023529
0.874510 0.000000 0.027451
0.937255 0.000000 0.031373
1.000000 0.000000 0.035294
1.000000 0.000000 0.043137
0.000000 0.000000 0.000000
0.000000 0.000000 0.000000
0.000000 0.000000 0.000000
0.003922 0.000000 0.000000
0.003922 0.000000 0.000000
0.007843 0.000000 0.000000
0.015686 0.000000 0.000000
0.027451 0.000000 0.000000
0.047059 0.000000 0.000000
0.070588 0.000000 0.000000
0.094118 0.000000 0.000000
0.117647 0.000000 0.000000
0.145098 0.000000 0.000000
0.176471 0.000000 0.000000
0.207843 0.000000 0.000000
0.243137 0.000000 0.000000
0.278431 0.000000 0.003922
0.317647 0.000000 0.003922
0.356863 0.000000 0.003922
0.400000 0.000000 0.003922
0.443137 0.000000 0.007843
0.490196 0.000000 0.007843
0.541176 0.000000 0.007843
0.592157 0.000000 0.011765
0.643137 0.000000 0.011765
0.698039 0.000000 0.015686
0.756863 0.000000 0.019608
0.815686 0.000000 0.023529
0.878431 0.000000 0.027451
0.941176 0.000000 0.031373
1.000000 0.000000 0.035294
1.000000 0.000000 0.043137
0.000000 0.000000 0.000000
0.000000 0.000000 0.000000
0.000000 0.000000 0.000000
0.003922 0.000000 0.000000
0.003922 0.000000 0.000000
0.011765 0.000000 0.000000
0.019608 0.000000 0.000000
0.031373 0.000000 0.000000
0.050980 0.000000 0.000000
0.070588 0.000000 0.000000
0.094118 0.000000 0.000000
0.121569 0.000000 0.000000
0.149020 0.000000 0.000000
0.180392 0.000000 0.000000
0.211765 0.000000 0.000000
0.243137 0.000000 0.000000
0.282353 0.000000 0.003922
0.317647 0.000000 0.003922
0.360784 0.000000 0.003922
0.403922 0.000000 0.003922
0.447059 0.000000 0.007843
0.494118 0.000000 0.007843
0.541176 0.000000 0.007843
0.592157 0.000000 0.011765
0.647059 0.000000 0.011765
0.701961 0.000000 0.015686
0.756863 0.000000 0.019608
0.815686 0.000000 0.023529
0.878431 0.000000 0.027451
0.941176 0.000000 0.031373
1.000000 0.000000 0.035294
1.000000 0.000000 0.043137
0.000000 0.003922 0.000000
0.000000 0.003922 0.000000
0.000000 0.003922 0.000000
0.003922 0.003922 0.000000
0.007843 0.003922 0.000000
0.011765 0.003922 0.000000
0.019608 0.003922 0.000000
0.035294 0.003922 0.000000
0.054902 0.003922 0.000000
0.074510 0.003922 0.000000
0.098039 0.000000 0.000000
0.125490 0.000000 0.000000
0.152941 0.000000 0.000000
0.184314 0.000000 0.000000
0.215686 0.000000 0.000000
0.247059 0.000000 0.003922
0.286275 0.000000 0.003922
0.321569 0.000000 0.003922
0.364706 0.000000 0.003922
0.403922 0.000000 0.003922
0.450980 0.000000 0.007843
0.498039 0.000000 0.007843
0.545098 0.000000 0.007843
0.596078 0.000000 0.011765
0.650980 0.000000 0.015686
0.705882 0.000000 0.015686
0.760784 0.000000 0.019608
0.819608 0.000000 0.023529
0.882353 0.000000 0.027451
0.945098 0.000000 0.031373
1.000000 0.000000 0.039216
1.000000 0.000000 0.043137
0.000000 0.007843 0.000000
0.000000 0.007843 0.000000
0.000000 0.007843 0.000000
0.003922 0.007843 0.000000
0.007843 0.007843 0.000000
0.015686 0.007843 0.000000
0.023529 0.007843 0.000000
0.039216 0.011765 0.000000
0.058824 0.011765 0.000000
0.082353 0.007843 0.000000
0.105882 0.007843 0.000000
0.129412 0.007843 0.000000
0.156863 0.003922 0.000000
0.188235 0.000000 0.000000
0.219608 0.000000 0.000000
0.254902 0.000000 0.003922
0.290196 0.000000 0.003922
0.329412 0.000000 0.003922
0.368627 0.000000 0.003922
0.411765 0.000000 0.003922
0.454902 0.000000 0.007843
0.501961 0.000000 0.007843
0.549020 0.000000 0.011765
0.600000 0.000000 0.011765
0.654902 0.000000 0.015686
0.709804 0.000000 0.015686
0.764706 0.000000 0.019608
0.823529 0.000000 0.023529
0.886275 0.000000 0.027451
0.949020 0.000000 0.031373
1.000000 0.000000 0.039216
1.000000 0.000000 0.043137
0.000000 0.015686 0.000000
0.000000 0.015686 0.000000
0.000000 0.015686 0.000000
0.003922 0.015686 0.000000
0.007843 0.019608 0.000000
0.015686 0.019608 0.000000
0.027451 0.019608 0.000000
0.047059 0.019608 0.000000
0.066667 0.019608 0.000000
0.086275 0.019608 0.000000
0.109804 0.019608 0.000000
0.137255 0.019608 0.000000
0.164706 0.019608 0.000000
0.192157 0.015686 0.000000
0.227451 0.011765 0.000000
0.258824 0.007843 0.003922
0.294118 0.000000 0.003922
0.333333 0.000000 0.003922
0.372549 0.000000 0.003922
0.415686 0.000000 0.003922
0.458824 0.000000 0.007843
0.505882 0.000000 0.007843
0.556863 0.000000 0.011765
0.607843 0.000000 0.011765
0.658824 0.000000 0.015686
0.713725 0.000000 0.019608
0.772549 0.000000 0.023529
0.831373 0.000000 0.023529
0.890196 0.000000 0.031373
0.952941 0.000000 0.035294
1.000000 0.000000 0.039216
1.000000 0.000000 0.047059
0.000000 0.031373 0.000000
0.000000 0.031373 0.000000
0.000000 0.031373 0.000000
0.003922 0.031373 0.000000
0.007843 0.031373 0.000000
0.019608 0.035294 0.000000
0.031373 0.035294 0.000000
0.050980 0.039216 0.000000
0.070588 0.039216 0.000000
0.094118 0.039216 0.000000
0.117647 0.039216 0.000000
0.145098 0.043137 0.000000
0.172549 0.039216 0.000000
0.200000 0.039216 0.000000
0.231373 0.035294 0.000000
0.266667 0.031373 0.003922
0.301961 0.027451 0.003922
0.341176 0.015686 0.003922
0.380392 0.003922 0.003922
0.423529 0.000000 0.007843
0.466667 0.000000 0.007843
0.513725 0.000000 0.007843
0.560784 0.000000 0.011765
0.611765 0.000000 0.011765
0.666667 0.000000 0.015686
0.721569 0.000000 0.019608
0.776471 0.000000 0.023529
0.835294 0.000000 0.027451
0.898039 0.000000 0.031373
0.960784 0.000000 0.035294
1.000000 0.000000 0.043137
1.000000 0.000000 0.047059
0.000000 0.050980 0.000000
0.000000 0.054902 0.000000
0.000000 0.054902 0.000000
0.000000 0.054902 0.000000
0.007843 0.054902 0.000000
0.019608 0.058824 0.000000
0.035294 0.058824 0.000000
0.054902 0.062745 0.000000
0.078431 0.062745 0.000000
0.098039 0.062745 0.000000
0.125490 0.066667 0.000000
0.149020 0.066667 0.000000
0.180392 0.066667 0.000000
0.207843 0.066667 0.000000
0.239216 0.066667 0.000000
0.274510 0.066667 0.000000
0.309804 0.062745 0.003922
0.349020 0.058824 0.003922
0.388235 0.050980 0.003922
0.431373 0.039216 0.007843
0.474510 0.019608 0.007843
0.521569 0.000000 0.007843
0.568627 0.000000 0.011765
0.619608 0.000000 0.015686
0.674510 0.000000 0.015686
0.729412 0.000000 0.019608
0.784314 0.000000 0.023529
0.843137 0.000000 0.027451
0.905882 0.000000 0.031373
0.968627 0.000000 0.035294
1.000000 0.000000 0.043137
1.000000 0.000000 0.047059
0.000000 0.078431 0.000000
0.000000 0.078431 0.000000
0.000000 0.078431 0.000000
0.000000 0.082353 0.000000
0.003922 0.082353 0.000000
0.019608 0.082353 0.000000
0.035294 0.086275 0.000000
0.058824 0.086275 0.000000
0.082353 0.090196 0.000000
0.105882 0.090196 0.000000
0.129412 0.094118 0.000000
0.156863 0.094118 0.000000
0.188235 0.094118 0.000000
0.215686 0.098039 0.000000
0.247059 0.098039 0.000000
0.282353 0.098039 0.000000
0.317647 0.098039 0.003922
0.356863 0.094118 0.003922
0.396078 0.090196 0.003922
0.439216 0.086275 0.007843
0.482353 0.078431 0.007843
0.529412 0.066667 0.007843
0.580392 0.047059 0.011765
0.627451 0.019608 0.015686
0.682353 0.000000 0.015686
0.737255 0.000000 0.019608
0.792157 0.000000 0.023529
0.850980 0.000000 0.027451
0.913725 0.000000 0.031373
0.976471 0.000000 0.039216
1.000000 0.000000 0.043137
1.000000 0.000000 0.050980
0.000000 0.109804 0.000000
0.000000 0.109804 0.000000
0.000000 0.109804 0.000000
0.000000 0.109804 0.000000
0.000000 0.109804 0.000000
0.015686 0.113725 0.000000
0.035294 0.113725 0.000000
0.062745 0.117647 0.000000
0.086275 0.117647 0.000000
0.109804 0.121569 0.000000
0.137255 0.121569 0.000000
0.164706 0.125490 0.000000
0.196078 0.125490 0.000000
0.223529 0.129412 0.000000
0.258824 0.129412 0.000000
0.294118 0.129412 0.000000
0.329412 0.129412 0.000000
0.368627 0.129412 0.003922
0.407843 0.129412 0.003922
0.450980 0.125490 0.003922
0.494118 0.121569 0.007843
0.541176 0.117647 0.007843
0.588235 0.109804 0.011765
0.639216 0.098039 0.015686
0.690196 0.078431 0.015686
0.745098 0.054902 0.019608
0.803922 0.007843 0.023529
0.862745 0.000000 0.027451
0.921569 0.000000 0.035294
0.988235 0.000000 0.039216
1.000000 0.000000 0.047059
1.000000 0.000000 0.050980
0.000000 0.141176 0.000000
0.000000 0.141176 0.000000
0.000000 0.141176 0.000000
0.000000 0.141176 0.000000
0.000000 0.141176 0.000000
0.007843 0.145098 0.000000
0.035294 0.145098 0.000000
0.062745 0.149020 0.000000
0.090196 0.149020 0.000000
0.117647 0.152941 0.000000
0.145098 0.152941 0.000000
0.172549 0.156863 0.000000
0.203922 0.156863 0.000000
0.235294 0.160784 0.000000
0.266667 0.160784 0.000000
0.301961 0.164706 0.000000
0.337255 0.164706 0.000000
0.376471 0.164706 0.000000
0.415686 0.164706 0.003922
0.458824 0.164706 0.003922
0.505882 0.164706 0.007843
0.552941 0.160784 0.007843
0.600000 0.156863 0.011765
0.650980 0.152941 0.015686
0.701961 0.141176 0.015686
0.756863 0.129412 0.019608
0.815686 0.113725 0.023529
0.874510 0.090196 0.027451
0.933333 0.050980 0.035294
0.996078 0.000000 0.039216
1.000000 0.000000 0.047059
1.000000 0.000000 0.050980
0.000000 0.172549 0.000000
0.000000 0.176471 0.000000
0.000000 0.176471 0.000000
0.000000 0.176471 0.000000
0.000000 0.176471 0.000000
0.000000 0.176471 0.000000
0.027451 0.180392 0.000000
0.062745 0.180392 0.000000
0.090196 0.184314 0.000000
0.121569 0.184314 0.000000
0.149020 0.188235 0.000000
0.180392 0.192157 0.000000
0.211765 0.192157 0.000000
0.243137 0.196078 0.000000
0.274510 0.200000 0.000000
0.313725 0.200000 0.000000
0.349020 0.203922 0.000000
0.388235 0.203922 0.000000
0.427451 0.203922 0.000000
0.470588 0.207843 0.003922
0.517647 0.203922 0.003922
0.560784 0.203922 0.007843
0.611765 0.203922 0.007843
0.662745 0.200000 0.011765
0.713725 0.196078 0.015686
0.768627 0.188235 0.019608
0.827451 0.180392 0.023529
0.886275 0.168627 0.027451
0.945098 0.152941 0.035294
1.000000 0.129412 0.039216
1.000000 0.098039 0.047059
1.000000 0.039216 0.054902
0.000000 0.211765 0.000000
0.000000 0.211765 0.000000
0.000000 0.211765 0.000000
0.000000 0.211765 0.000000
0.000000 0.215686 0.000000
0.000000 0.215686 0.000000
0.015686 0.215686 0.000000
0.054902 0.219608 0.000000
0.090196 0.219608 0.000000
0.121569 0.223529 0.000000
0.152941 0.227451 0.000000
0.184314 0.227451 0.000000
0.219608 0.231373 0.000000
0.250980 0.235294 0.000000
0.286275 0.235294 0.000000
0.321569 0.239216 0.000000
0.360784 0.243137 0.000000
0.400000 0.243137 0.000000
0.439216 0.247059 0.000000
0.482353 0.247059 0.000000
0.529412 0.247059 0.000000
0.576471 0.247059 0.003922
0.623529 0.247059 0.007843
0.674510 0.247059 0.011765
0.725490 0.243137 0.015686
0.780392 0.239216 0.019608
0.839216 0.235294 0.023529
0.898039 0.227451 0.027451
0.956863 0.219608 0.035294
1.000000 0.207843 0.039216
1.000000 0.192157 0.047059
1.000000 0.172549 0.054902
0.000000 0.250980 0.000000
0.000000 0.250980 0.000000
0.000000 0.250980 0.000000
0.000000 0.254902 0.000000
0.000000 0.254902 0.000000
0.000000 0.254902 0.000000
0.000000 0.258824 0.000000
0.043137 0.258824 0.000000
0.086275 0.262745 0.000000
0.121569 0.262745 0.000000
0.156863 0.266667 0.000000
0.192157 0.266667 0.000000
0.223529 0.270588 0.000000
0.258824 0.274510 0.000000
0.294118 0.278431 0.000000
0.333333 0.278431 0.000000
0.368627 0.282353 0.000000
0.411765 0.286275 0.000000
0.450980 0.286275 0.000000
0.494118 0.290196 0.000000
0.541176 0.290196 0.000000
0.588235 0.294118 0.000000
0.635294 0.294118 0.003922
0.686275 0.294118 0.007843
0.741176 0.294118 0.011765
0.796078 0.290196 0.015686
0.850980 0.290196 0.019608
0.909804 0.286275 0.027451
0.972549 0.278431 0.031373
1.000000 0.274510 0.039216
1.000000 0.262745 0.047059
1.000000 0.250980 0.050980
0.000000 0.294118 0.000000
0.000000 0.294118 0.000000
0.000000 0.294118 0.000000
0.000000 0.298039 0.000000
0.000000 0.298039 0.000000
0.000000 0.298039 0.000000
0.000000 0.301961 0.000000
0.019608 0.301961 0.000000
0.074510 0.305882 0.000000
0.117647 0.305882 0.000000
0.156863 0.309804 0.000000
0.192157 0.309804 0.000000
0.231373 0.313725 0.000000
0.266667 0.317647 0.000000
0.301961 0.321569 0.000000
0.341176 0.321569 0.000000
0.380392 0.325490 0.000000
0.419608 0.329412 0.000000
0.462745 0.333333 0.000000
0.505882 0.333333 0.000000
0.552941 0.337255 0.000000
0.600000 0.341176 0.000000
0.650980 0.341176 0.000000
0.701961 0.341176 0.003922
0.752941 0.345098 0.007843
0.807843 0.341176 0.011765
0.866667 0.341176 0.015686
0.925490 0.341176 0.023529
0.988235 0.337255 0.027451
1.000000 0.333333 0.035294
1.000000 0.325490 0.043137
1.000000 0.317647 0.050980
0.000000 0.341176 0.000000
0.000000 0.341176 0.000000
0.000000 0.341176 0.000000
0.000000 0.341176 0.000000
0.000000 0.341176 0.000000
0.000000 0.345098 0.000000
0.000000 0.345098 0.000000
0.000000 0.349020 0.000000
0.058824 0.349020 0.000000
0.113725 0.352941 0.000000
0.156863 0.352941 0.000000
0.196078 0.356863 0.000000
0.235294 0.360784 0.000000
0.270588 0.364706 0.000000
0.309804 0.364706 0.000000
0.349020 0.368627 0.000000
0.388235 0.372549 0.000000
0.431373 0.376471 0.000000
0.474510 0.380392 0.000000
0.521569 0.380392 0.000000
0.564706 0.384314 0.000000
0.615686 0.388235 0.000000
0.662745 0.392157 0.000000
0.713725 0.392157 0.000000
0.768627 0.392157 0.000000
0.823529 0.396078 0.003922
0.882353 0.396078 0.011765
0.941176 0.396078 0.015686
1.000000 0.392157 0.023529
1.000000 0.392157 0.031373
1.000000 0.388235 0.039216
1.000000 0.384314 0.047059
0.000000 0.388235 0.000000
0.000000 0.388235 0.000000
0.000000 0.388235 0.000000
0.000000 0.392157 0.000000
0.000000 0.392157 0.000000
0.000000 0.392157 0.000000
0.000000 0.396078 0.000000
0.000000 0.396078 0.000000
0.023529 0.396078 0.000000
0.098039 0.400000 0.000000
0.149020 0.403922 0.000000
0.196078 0.403922 0.000000
0.235294 0.407843 0.000000
0.274510 0.411765 0.000000
0.317647 0.415686 0.000000
0.356863 0.419608 0.000000
0.400000 0.419608 0.000000
0.443137 0.423529 0.000000
0.486275 0.427451 0.000000
0.533333 0.431373 0.000000
0.580392 0.435294 0.000000
0.627451 0.439216 0.000000
0.678431 0.443137 0.000000
0.729412 0.443137 0.000000
0.784314 0.447059 0.000000
0.839216 0.447059 0.000000
0.898039 0.450980 0.003922
0.956863 0.450980 0.011765
1.000000 0.450980 0.015686
1.000000 0.450980 0.023529
1.000000 0.447059 0.035294
1.000000 0.447059 0.043137
0.000000 0.439216 0.000000
0.000000 0.439216 0.000000
0.000000 0.443137 0.000000
0.000000 0.443137 0.000000
0.000000 0.443137 0.000000
0.000000 0.443137 0.000000
0.000000 0.447059 0.000000
0.000000 0.447059 0.000000
0.000000 0.450980 0.000000
0.074510 0.450980 0.000000
0.141176 0.454902 0.000000
0.188235 0.454902 0.000000
0.235294 0.458824 0.000000
0.278431 0.462745 0.000000
0.321569 0.466667 0.000000
0.364706 0.470588 0.000000
0.407843 0.474510 0.000000
0.450980 0.478431 0.000000
0.498039 0.482353 0.000000
0.545098 0.482353 0.000000
0.592157 0.486275 0.000000
0.639216 0.490196 0.000000
0.690196 0.494118 0.000000
0.745098 0.498039 0.000000
0.800000 0.501961 0.000000
0.854902 0.501961 0.000000
0.913725 0.505882 0.000000
0.972549 0.505882 0.000000
1.000000 0.509804 0.007843
1.000000 0.509804 0.015686
1.000000 0.509804 0.027451
1.000000 0.509804 0.035294
0.000000 0.494118 0.000000
0.000000 0.494118 0.000000
0.000000 0.494118 0.000000
0.000000 0.498039 0.000000
0.000000 0.498039 0.000000
0.000000 0.498039 0.000000
0.000000 0.498039 0.000000
0.000000 0.501961 0.000000
0.000000 0.501961 0.000000
0.023529 0.505882 0.000000
0.121569 0.509804 0.000000
0.180392 0.509804 0.000000
0.231373 0.513725 0.000000
0.278431 0.517647 0.000000
0.325490 0.521569 0.000000
0.368627 0.525490 0.000000
0.415686 0.525490 0.000000
0.462745 0.529412 0.000000
0.505882 0.533333 0.000000
0.556863 0.537255 0.000000
0.603922 0.541176 0.000000
0.654902 0.545098 0.000000
0.705882 0.549020 0.000000
0.760784 0.552941 0.000000
0.815686 0.556863 0.000000
0.870588 0.560784 0.000000
0.929412 0.564706 0.000000
0.988235 0.564706 0.000000
1.000000 0.568627 0.000000
1.000000 0.568627 0.003922
1.000000 0.572549 0.015686
1.000000 0.572549 0.023529
0.000000 0.552941 0.000000
0.000000 0.552941 0.000000
0.000000 0.552941 0.000000
0.000000 0.552941 0.000000
0.000000 0.552941 0.000000
0.000000 0.556863 0.000000
0.000000 0.556863 0.000000
0.000000 0.556863 0.000000
0.000000 0.560784 0.000000
0.000000 0.560784 0.000000
0.090196 0.564706 0.000000
0.168627 0.568627 0.000000
0.227451 0.572549 0.000000
0.278431 0.572549 0.000000
0.325490 0.576471 0.000000
0.372549 0.580392 0.000000
0.423529 0.584314 0.000000
0.470588 0.588235 0.000000
0.517647 0.592157 0.000000
0.564706 0.596078 0.000000
0.615686 0.600000 0.000000
0.666667 0.603922 0.000000
0.721569 0.607843 0.000000
0.772549 0.611765 0.000000
0.827451 0.615686 0.000000
0.886275 0.619608 0.000000
0.945098 0.623529 0.000000
1.000000 0.627451 0.000000
1.000000 0.627451 0.000000
1.000000 0.631373 0.000000
1.000000 0.635294 0.000000
1.000000 0.635294 0.011765
0.000000 0.611765 0.000000
0.000000 0.611765 0.000000
0.000000 0.611765 0.000000
0.000000 0.611765 0.000000
0.000000 0.615686 0.000000
0.000000 0.615686 0.000000
0.000000 0.615686 0.000000
0.000000 0.619608 0.000000
0.000000 0.619608 0.000000
0.000000 0.623529 0.000000
0.023529 0.623529 0.000000
0.145098 0.627451 0.000000
0.215686 0.631373 0.000000
0.270588 0.635294 0.000000
0.325490 0.635294 0.000000
0.376471 0.639216 0.000000
0.427451 0.643137 0.000000
0.474510 0.647059 0.000000
0.525490 0.650980 0.000000
0.576471 0.654902 0.000000
0.627451 0.658824 0.000000
0.678431 0.666667 0.000000
0.733333 0.670588 0.000000
0.788235 0.674510 0.000000
0.843137 0.678431 0.000000
0.901961 0.682353 0.000000
0.960784 0.686275 0.000000
1.000000 0.690196 0.000000
1.000000 0.694118 0.000000
1.000000 0.694118 0.000000
1.000000 0.698039 0.000000
1.000000 0.701961 0.000000
0.000000 0.674510 0.000000
0.000000 0.674510 0.000000
0.000000 0.674510 0.000000
0.000000 0.674510 0.000000
0.000000 0.678431 0.000000
0.000000 0.678431 0.000000
0.000000 0.678431 0.000000
0.000000 0.682353 0.000000
0.000000 0.682353 0.000000
0.000000 0.686275 0.000000
0.000000 0.686275 0.000000
0.105882 0.690196 0.000000
0.196078 0.694118 0.000000
0.262745 0.694118 0.000000
0.321569 0.698039 0.000000
0.376471 0.701961 0.000000
0.427451 0.705882 0.000000
0.482353 0.709804 0.000000
0.533333 0.713725 0.000000
0.584314 0.717647 0.000000
0.639216 0.721569 0.000000
0.690196 0.729412 0.000000
0.745098 0.733333 0.000000
0.803922 0.737255 0.000000
0.858824 0.741176 0.000000
0.917647 0.745098 0.000000
0.980392 0.749020 0.000000
1.000000 0.752941 0.000000
1.000000 0.756863 0.000000
1.000000 0.760784 0.000000
1.000000 0.764706 0.000000
1.000000 0.768627 0.000000
0.000000 0.741176 0.000000
0.000000 0.741176 0.000000
0.000000 0.741176 0.000000
0.000000 0.741176 0.000000
0.000000 0.741176 0.000000
0.000000 0.745098 0.000000
0.000000 0.745098 0.000000
0.000000 0.745098 0.000000
0.000000 0.749020 0.000000
0.000000 0.749020 0.000000
0.000000 0.752941 0.000000
0.011765 0.756863 0.000000
0.164706 0.756863 0.000000
0.247059 0.760784 0.000000
0.313725 0.764706 0.000000
0.372549 0.768627 0.000000
0.431373 0.772549 0.000000
0.486275 0.776471 0.000000
0.537255 0.780392 0.000000
0.592157 0.784314 0.000000
0.647059 0.788235 0.000000
0.701961 0.792157 0.000000
0.756863 0.800000 0.000000
0.815686 0.803922 0.000000
0.874510 0.807843 0.000000
0.933333 0.811765 0.000000
0.996078 0.815686 0.000000
1.000000 0.819608 0.000000
1.000000 0.823529 0.000000
1.000000 0.831373 0.000000
1.000000 0.835294 0.000000
1.000000 0.835294 0.000000
0.000000 0.807843 0.000000
0.000000 0.807843 0.000000
0.000000 0.807843 0.000000
0.000000 0.807843 0.000000
0.000000 0.811765 0.000000
0.000000 0.811765 0.000000
0.000000 0.811765 0.000000
0.000000 0.815686 0.000000
0.000000 0.815686 0.000000
0.000000 0.819608 0.000000
0.000000 0.819608 0.000000
0.000000 0.823529 0.000000
0.117647 0.827451 0.000000
0.223529 0.827451 0.000000
0.301961 0.831373 0.000000
0.364706 0.835294 0.000000
0.427451 0.839216 0.000000
0.486275 0.843137 0.000000
0.541176 0.847059 0.000000
0.600000 0.850980 0.000000
0.654902 0.858824 0.000000
0.713725 0.862745 0.000000
0.768627 0.866667 0.000000
0.827451 0.870588 0.000000
0.886275 0.874510 0.000000
0.949020 0.882353 0.000000
1.000000 0.886275 0.000000
1.000000 0.890196 0.000000
1.000000 0.894118 0.000000
1.000000 0.898039 0.000000
1.000000 0.905882 0.000000
1.000000 0.909804 0.000000
0.000000 0.878431 0.000000
0.000000 0.878431 0.000000
0.000000 0.878431 0.000000
0.000000 0.882353 0.000000
0.000000 0.882353 0.000000
0.000000 0.882353 0.000000
0.000000 0.882353 0.000000
0.000000 0.886275 0.000000
0.000000 0.886275 0.000000
0.000000 0.890196 0.000000
0.000000 0.890196 0.000000
0.000000 0.894118 0.000000
0.000000 0.898039 0.000000
0.188235 0.901961 0.000000
0.282353 0.901961 0.000000
0.356863 0.905882 0.000000
0.423529 0.909804 0.000000
0.486275 0.913725 0.000000
0.545098 0.917647 0.000000
0.603922 0.925490 0.000000
0.662745 0.929412 0.000000
0.721569 0.933333 0.000000
0.780392 0.937255 0.000000
0.839216 0.941176 0.000000
0.901961 0.949020 0.000000
0.964706 0.952941 0.000000
1.000000 0.956863 0.000000
1.000000 0.964706 0.000000
1.000000 0.968627 0.000000
1.000000 0.972549 0.000000
1.000000 0.976471 0.000000
1.000000 0.980392 0.000000
0.000000 0.952941 0.000000
0.000000 0.952941 0.000000
0.000000 0.952941 0.000000
0.000000 0.952941 0.000000
0.000000 0.956863 0.000000
0.000000 0.956863 0.000000
0.000000 0.956863 0.000000
0.000000 0.960784 0.000000
0.000000 0.960784 0.000000
0.000000 0.964706 0.000000
0.000000 0.964706 0.000000
0.000000 0.968627 0.000000
0.000000 0.972549 0.000000
0.125490 0.972549 0.000000
0.250980 0.976471 0.000000
0.341176 0.980392 0.000000
0.411765 0.984314 0.000000
0.482353 0.988235 0.000000
0.545098 0.992157 0.000000
0.607843 0.996078 0.000000
0.666667 1.000000 0.000000
0.729412 1.000000 0.000000
0.792157 1.000000 0.000000
0.850980 1.000000 0.000000
0.913725 1.000000 0.000000
0.976471 1.000000 0.000000
1.000000 1.000000 0.000000
1.000000 1.000000 0.000000
1.000000 1.000000 0.000000
1.000000 1.000000 0.000000
1.000000 1.000000 0.000000
1.000000 1.000000 0.000000
0.000000 1.000000 0.000000
0.000000 1.000000 0.000000
0.000000 1.000000 0.000000
0.000000 1.000000 0.000000
0.000000 1.000000 0.000000
0.000000 1.000000 0.000000
0.000000 1.000000 0.000000
0.000000 1.000000 0.000000
0.000000 1.000000 0.000000
0.000000 1.000000 0.000000
0.000000 1.000000 0.000000
0.000000 1.000000 0.000000
0.000000 1.000000 0.000000
0.000000 1.000000 0.000000
0.207843 1.000000 0.000000
0.313725 1.000000 0.000000
0.400000 1.000000 0.000000
0.474510 1.000000 0.000000
0.541176 1.000000 0.000000
0.607843 1.000000 0.000000
0.670588 1.000000 0.000000
0.733333 1.000000 0.000000
0.800000 1.000000 0.000000
0.862745 1.000000 0.000000
0.925490 1.000000 0.000000
0.992157 1.000000 0.000000
1.000000 1.000000 0.000000
1.000000 1.000000 0.000000
1.000000 1.000000 0.000000
1.000000 1.000000 0.000000
1.000000 1.000000 0.000000
1.000000 1.000000 0.000000
0.000000 1.000000 0.000000
0.000000 1.000000 0.000000
0.000000 1.000000 0.000000
0.000000 1.000000 0.000000
0.000000 1.000000 0.000000
0.000000 1.000000 0.000000
0.000000 1.000000 0.000000
0.000000 1.000000 0.000000
0.000000 1.000000 0.000000
0.000000 1.000000 0.000000
0.000000 1.000000 0.000000
0.000000 1.000000 0.000000
0.000000 1.000000 0.000000
0.000000 1.000000 0.000000
0.133333 1.000000 0.000000
0.282353 1.000000 0.000000
0.380392 1.000000 0.000000
0.458824 1.000000 0.000000
0.533333 1.000000 0.000000
0.603922 1.000000 0.000000
0.674510 1.000000 0.000000
0.741176 1.000000 0.000000
