Ball Tracking & Path Prediction/OpenCV (Ball Tracking)/Contrast LUT.CUBE
#Generated by wwww.onlinelutcreator.com 
LUT_3D_SIZE 5 
DOMAIN_MIN 0.000000 0.000000 0.000000
DOMAIN_MAX 0.903226 0.903226 0.903226
0.000000 0.000000 0.000000
0.027451 0.000000 0.000000
0.203922 0.000000 0.000000
0.490196 0.000000 0.007843
0.874510 0.000000 0.027451
0.000000 0.050980 0.000000
0.054902 0.062745 0.000000
0.239216 0.066667 0.000000
0.521569 0.000000 0.007843
0.905882 0.000000 0.031373
0.000000 0.294118 0.000000
0.019608 0.301961 0.000000
0.301961 0.321569 0.000000
0.600000 0.341176 0.000000
0.988235 0.337255 0.027451
0.000000 0.674510 0.000000
0.000000 0.682353 0.000000
0.321569 0.698039 0.000000
0.690196 0.729412 0.000000
1.000000 0.756863 0.000000
0.000000 1.000000 0.000000
0.000000 1.000000 0.000000
0.000000 1.000000 0.000000
0.741176 1.000000 0.000000
1.000000 1.000000 0.000000
0.000000 0.000000 0.035294
0.031373 0.000000 0.039216
0.215686 0.000000 0.058824
0.498039 0.000000 0.090196
0.882353 0.000000 0.125490
0.000000 0.054902 0.058824
0.062745 0.062745 0.062745
0.250980 0.066667 0.078431
0.529412 0.000000 0.105882
0.913725 0.000000 0.137255
0.000000 0.298039 0.094118
0.039216 0.301961 0.098039
0.313725 0.321569 0.109804
0.607843 0.341176 0.133333
0.996078 0.337255 0.164706
0.000000 0.674510 0.101961
0.000000 0.682353 0.109804
0.333333 0.701961 0.121569
0.701961 0.729412 0.149020
1.000000 0.756863 0.184314
0.000000 1.000000 0.000000
0.000000 1.000000 0.000000
0.007843 1.000000 0.003922
0.749020 1.000000 0.082353
1.000000 1.000000 0.145098
0.000000 0.000000 0.231373
0.000000 0.000000 0.239216
0.227451 0.000000 0.254902
0.521569 0.000000 0.286275
0.909804 0.000000 0.325490
0.000000 0.062745 0.254902
0.003922 0.066667 0.258824
0.258824 0.062745 0.274510
0.552941 0.000000 0.301961
0.937255 0.000000 0.341176
0.000000 0.301961 0.305882
0.015686 0.309804 0.313725
0.325490 0.325490 0.325490
0.631373 0.341176 0.349020
1.000000 0.333333 0.384314
0.000000 0.682353 0.376471
0.000000 0.686275 0.380392
0.352941 0.705882 0.388235
0.721569 0.733333 0.411765
1.000000 0.760784 0.443137
0.000000 1.000000 0.435294
0.000000 1.000000 0.439216
0.156863 1.000000 0.450980
0.772549 1.000000 0.470588
1.000000 1.000000 0.498039
0.000000 0.000000 0.545098
0.000000 0.000000 0.549020
0.152941 0.000000 0.564706
0.533333 0.000000 0.592157
0.937255 0.000000 0.635294
0.000000 0.062745 0.564706
0.000000 0.062745 0.568627
0.207843 0.050980 0.584314
0.564706 0.000000 0.611765
0.968627 0.000000 0.650980
0.000000 0.313725 0.619608
0.000000 0.317647 0.623529
0.298039 0.329412 0.635294
0.643137 0.341176 0.662745
1.000000 0.329412 0.698039
0.000000 0.690196 0.701961
0.000000 0.698039 0.705882
0.345098 0.713725 0.717647
0.737255 0.737255 0.737255
1.000000 0.764706 0.772549
0.000000 1.000000 0.796078
0.000000 1.000000 0.800000
0.192157 1.000000 0.811765
0.800000 1.000000 0.831373
1.000000 1.000000 0.862745
0.000000 0.000000 0.972549
0.000000 0.000000 0.976471
0.000000 0.000000 0.992157
0.470588 0.000000 1.000000
0.949020 0.000000 1.000000
0.000000 0.047059 0.988235
0.000000 0.039216 0.996078
0.000000 0.000000 1.000000
0.509804 0.000000 1.000000
0.976471 0.000000 1.000000
0.000000 0.321569 1.000000
0.000000 0.325490 1.000000
0.000000 0.337255 1.000000
0.607843 0.341176 1.000000
1.000000 0.317647 1.000000
0.000000 0.705882 1.000000
0.000000 0.709804 1.000000
0.141176 0.725490 1.000000
0.717647 0.749020 1.000000
1.000000 0.768627 1.000000
0.000000 1.000000 1.000000
0.000000 1.000000 1.000000
0.000000 1.000000 1.000000
0.796078 1.000000 1.000000
1.000000 1.000000 1.000000
