Ball Tracking & Path Prediction/OpenCV (Ball Tracking)/Contrast LUT.CUBE
#Generated by wwww.onlinelutcreator.com 
LUT_3D_SIZE 8 
DOMAIN_MIN 0.000000 0.000000 0.000000
DOMAIN_MAX 0.903226 0.903226 0.903226
0.000000 0.000000 0.000000
0.003922 0.000000 0.000000
0.043137 0.000000 0.000000
0.145098 0.000000 0.000000
0.274510 0.000000 0.003922
0.443137 0.000000 0.003922
0.643137 0.000000 0.011765
0.874510 0.000000 0.027451
0.000000 0.007843 0.000000
0.007843 0.007843 0.000000
0.058824 0.011765 0.000000
0.156863 0.003922 0.000000
0.290196 0.000000 0.003922
0.454902 0.000000 0.007843
0.654902 0.000000 0.015686
0.886275 0.000000 0.027451
0.000000 0.078431 0.000000
0.003922 0.082353 0.000000
0.082353 0.090196 0.000000
0.188235 0.094118 0.000000
0.317647 0.098039 0.003922
0.482353 0.078431 0.007843
0.682353 0.000000 0.015686
0.913725 0.000000 0.031373
0.000000 0.211765 0.000000
0.000000 0.215686 0.000000
0.090196 0.219608 0.000000
0.219608 0.231373 0.000000
0.360784 0.243137 0.000000
0.529412 0.247059 0.000000
0.725490 0.243137 0.015686
0.956863 0.219608 0.035294
0.000000 0.388235 0.000000
0.000000 0.392157 0.000000
0.023529 0.396078 0.000000
0.235294 0.407843 0.000000
0.400000 0.419608 0.000000
0.580392 0.435294 0.000000
0.784314 0.447059 0.000000
1.000000 0.450980 0.015686
0.000000 0.611765 0.000000
0.000000 0.615686 0.000000
0.000000 0.619608 0.000000
0.215686 0.631373 0.000000
0.427451 0.643137 0.000000
0.627451 0.658824 0.000000
0.843137 0.678431 0.000000
1.000000 0.694118 0.000000
0.000000 0.878431 0.000000
0.000000 0.882353 0.000000
0.000000 0.886275 0.000000
0.000000 0.898039 0.000000
0.423529 0.909804 0.000000
0.662745 0.929412 0.000000
0.901961 0.949020 0.000000
1.000000 0.968627 0.000000
0.000000 1.000000 0.000000
0.000000 1.000000 0.000000
0.000000 1.000000 0.000000
0.000000 1.000000 0.000000
0.349020 1.000000 0.000000
0.670588 1.000000 0.000000
0.945098 1.000000 0.000000
1.000000 1.000000 0.000000
0.000000 0.000000 0.003922
0.003922 0.000000 0.003922
0.050980 0.000000 0.007843
0.149020 0.000000 0.011765
0.278431 0.000000 0.019608
0.447059 0.000000 0.031373
0.647059 0.000000 0.050980
0.878431 0.000000 0.070588
0.000000 0.007843 0.007843
0.007843 0.007843 0.007843
0.062745 0.011765 0.011765
0.160784 0.003922 0.015686
0.294118 0.000000 0.023529
0.458824 0.000000 0.039216
0.658824 0.000000 0.054902
0.890196 0.000000 0.074510
0.000000 0.078431 0.015686
0.007843 0.082353 0.015686
0.086275 0.090196 0.019608
0.188235 0.098039 0.023529
0.321569 0.098039 0.031373
0.486275 0.078431 0.047059
0.686275 0.000000 0.062745
0.917647 0.000000 0.082353
0.000000 0.211765 0.019608
0.000000 0.215686 0.019608
0.094118 0.223529 0.023529
0.219608 0.231373 0.031373
0.364706 0.243137 0.043137
0.529412 0.247059 0.054902
0.729412 0.243137 0.074510
0.960784 0.219608 0.094118
0.000000 0.388235 0.007843
0.000000 0.392157 0.011765
0.035294 0.400000 0.015686
0.239216 0.407843 0.023529
0.403922 0.423529 0.035294
0.580392 0.435294 0.054902
0.788235 0.447059 0.074510
1.000000 0.450980 0.098039
0.000000 0.611765 0.000000
0.000000 0.615686 0.000000
0.000000 0.619608 0.000000
0.219608 0.631373 0.000000
0.431373 0.643137 0.000000
0.631373 0.662745 0.019608
0.847059 0.678431 0.050980
1.000000 0.694118 0.082353
0.000000 0.878431 0.000000
0.000000 0.882353 0.000000
0.000000 0.886275 0.000000
0.019608 0.898039 0.000000
0.427451 0.909804 0.000000
0.666667 0.929412 0.000000
0.905882 0.949020 0.000000
1.000000 0.968627 0.011765
0.000000 1.000000 0.000000
0.000000 1.000000 0.000000
0.000000 1.000000 0.000000
0.000000 1.000000 0.000000
0.356863 1.000000 0.000000
0.674510 1.000000 0.000000
0.949020 1.000000 0.000000
1.000000 1.000000 0.000000
0.000000 0.000000 0.054902
0.000000 0.000000 0.058824
0.050980 0.000000 0.062745
0.156863 0.000000 0.074510
0.290196 0.000000 0.090196
0.454902 0.000000 0.105882
0.654902 0.000000 0.125490
0.886275 0.000000 0.149020
0.000000 0.007843 0.066667
0.003922 0.007843 0.066667
0.066667 0.007843 0.074510
0.168627 0.003922 0.082353
0.301961 0.000000 0.094118
0.466667 0.000000 0.113725
0.666667 0.000000 0.133333
0.898039 0.000000 0.152941
0.000000 0.082353 0.082353
0.003922 0.086275 0.086275
0.090196 0.090196 0.090196
0.196078 0.098039 0.098039
0.329412 0.094118 0.109804
0.494118 0.074510 0.125490
0.694118 0.000000 0.145098
0.925490 0.000000 0.164706
0.000000 0.215686 0.105882
0.000000 0.215686 0.109804
0.101961 0.223529 0.113725
0.227451 0.231373 0.121569
0.372549 0.243137 0.133333
0.537255 0.247059 0.145098
0.737255 0.243137 0.164706
0.968627 0.219608 0.184314
0.000000 0.392157 0.129412
0.000000 0.396078 0.129412
0.054902 0.400000 0.133333
0.247059 0.411765 0.141176
0.411765 0.423529 0.152941
0.588235 0.435294 0.164706
0.796078 0.447059 0.180392
1.000000 0.450980 0.200000
0.000000 0.615686 0.145098
0.000000 0.615686 0.145098
0.000000 0.623529 0.149020
0.231373 0.631373 0.156863
0.439216 0.647059 0.164706
0.639216 0.662745 0.180392
0.854902 0.678431 0.196078
1.000000 0.694118 0.215686
0.000000 0.882353 0.141176
0.000000 0.882353 0.141176
0.000000 0.890196 0.145098
0.078431 0.898039 0.152941
0.435294 0.913725 0.164706
0.674510 0.929412 0.180392
0.913725 0.949020 0.200000
1.000000 0.968627 0.219608
0.000000 1.000000 0.094118
0.000000 1.000000 0.098039
0.000000 1.000000 0.105882
0.000000 1.000000 0.117647
0.372549 1.000000 0.133333
0.686275 1.000000 0.156863
0.956863 1.000000 0.180392
1.000000 1.000000 0.207843
0.000000 0.000000 0.164706
0.000000 0.000000 0.168627
0.031373 0.000000 0.172549
0.160784 0.000000 0.180392
0.298039 0.000000 0.196078
0.466667 0.000000 0.211765
0.666667 0.000000 0.235294
0.898039 0.000000 0.258824
0.000000 0.007843 0.172549
0.000000 0.007843 0.176471
0.050980 0.007843 0.180392
0.172549 0.000000 0.188235
0.313725 0.000000 0.203922
0.478431 0.000000 0.219608
0.678431 0.000000 0.239216
0.909804 0.000000 0.266667
0.000000 0.086275 0.192157
0.000000 0.086275 0.196078
0.082353 0.094118 0.200000
0.203922 0.098039 0.207843
0.341176 0.094118 0.219608
0.505882 0.070588 0.235294
0.705882 0.000000 0.254902
0.937255 0.000000 0.278431
0.000000 0.219608 0.219608
0.000000 0.219608 0.223529
0.098039 0.227451 0.227451
0.235294 0.235294 0.235294
0.380392 0.243137 0.247059
0.549020 0.247059 0.262745
0.749020 0.243137 0.278431
0.980392 0.215686 0.301961
0.000000 0.396078 0.254902
0.000000 0.396078 0.254902
0.062745 0.403922 0.258824
0.258824 0.411765 0.266667
0.419608 0.423529 0.278431
0.600000 0.439216 0.290196
0.807843 0.447059 0.305882
1.000000 0.450980 0.325490
0.000000 0.615686 0.286275
0.000000 0.619608 0.290196
0.000000 0.623529 0.294118
0.243137 0.635294 0.298039
0.450980 0.647059 0.309804
0.650980 0.662745 0.321569
0.866667 0.678431 0.337255
1.000000 0.694118 0.356863
0.000000 0.886275 0.317647
0.000000 0.886275 0.317647
0.000000 0.894118 0.321569
0.125490 0.901961 0.329412
0.450980 0.913725 0.337255
0.686275 0.933333 0.349020
0.925490 0.952941 0.364706
1.000000 0.972549 0.384314
0.000000 1.000000 0.337255
0.000000 1.000000 0.337255
0.000000 1.000000 0.341176
0.000000 1.000000 0.349020
0.392157 1.000000 0.356863
0.698039 1.000000 0.368627
0.968627 1.000000 0.384314
1.000000 1.000000 0.403922
0.000000 0.000000 0.309804
0.000000 0.000000 0.313725
0.000000 0.000000 0.317647
0.141176 0.000000 0.325490
0.301961 0.000000 0.341176
0.478431 0.000000 0.356863
0.682353 0.000000 0.380392
0.917647 0.000000 0.403922
0.000000 0.007843 0.317647
0.000000 0.007843 0.321569
0.000000 0.003922 0.325490
0.156863 0.000000 0.333333
0.313725 0.000000 0.349020
0.490196 0.000000 0.364706
0.694118 0.000000 0.384314
0.929412 0.000000 0.407843
0.000000 0.090196 0.337255
0.000000 0.090196 0.341176
0.000000 0.094118 0.345098
0.192157 0.098039 0.352941
0.345098 0.090196 0.364706
0.517647 0.058824 0.380392
0.721569 0.000000 0.400000
0.952941 0.000000 0.423529
0.000000 0.223529 0.368627
0.000000 0.223529 0.368627
0.047059 0.231373 0.372549
0.227451 0.239216 0.380392
0.384314 0.247059 0.392157
0.560784 0.247059 0.407843
0.764706 0.239216 0.427451
1.000000 0.207843 0.447059
0.000000 0.400000 0.403922
0.000000 0.400000 0.407843
0.011765 0.407843 0.411765
0.254902 0.415686 0.419608
0.427451 0.427451 0.427451
0.611765 0.439216 0.443137
0.819608 0.447059 0.458824
1.000000 0.450980 0.482353
0.000000 0.619608 0.447059
0.000000 0.623529 0.450980
0.000000 0.631373 0.454902
0.250980 0.639216 0.458824
0.458824 0.650980 0.470588
0.662745 0.666667 0.482353
0.882353 0.682353 0.498039
1.000000 0.694118 0.517647
0.000000 0.890196 0.490196
0.000000 0.890196 0.494118
0.000000 0.898039 0.498039
0.149020 0.905882 0.501961
0.462745 0.917647 0.509804
0.701961 0.937255 0.525490
0.937255 0.952941 0.537255
1.000000 0.972549 0.556863
0.000000 1.000000 0.533333
0.000000 1.000000 0.533333
0.000000 1.000000 0.537255
0.000000 1.000000 0.545098
0.415686 1.000000 0.552941
0.713725 1.000000 0.564706
0.984314 1.000000 0.576471
1.000000 1.000000 0.596078
0.000000 0.000000 0.494118
0.000000 0.000000 0.494118
0.000000 0.000000 0.501961
0.000000 0.000000 0.509804
0.282353 0.000000 0.521569
0.482353 0.000000 0.537255
0.694118 0.000000 0.556863
0.933333 0.000000 0.584314
0.000000 0.003922 0.501961
0.000000 0.000000 0.501961
0.000000 0.000000 0.509804
0.054902 0.000000 0.517647
0.298039 0.000000 0.529412
0.494118 0.000000 0.545098
0.705882 0.000000 0.564706
0.945098 0.000000 0.588235
0.000000 0.090196 0.517647
0.000000 0.094118 0.521569
0.000000 0.094118 0.525490
0.125490 0.094118 0.533333
0.333333 0.086275 0.545098
0.521569 0.039216 0.560784
0.733333 0.000000 0.580392
0.972549 0.000000 0.603922
0.000000 0.227451 0.549020
0.000000 0.231373 0.549020
0.000000 0.235294 0.552941
0.184314 0.239216 0.560784
0.376471 0.247059 0.572549
0.568627 0.247059 0.588235
0.776471 0.239216 0.607843
1.000000 0.200000 0.631373
0.000000 0.403922 0.588235
0.000000 0.407843 0.588235
0.000000 0.411765 0.596078
0.223529 0.419608 0.600000
0.423529 0.431373 0.611765
0.619608 0.443137 0.627451
0.831373 0.450980 0.643137
1.000000 0.450980 0.666667
0.000000 0.627451 0.635294
0.000000 0.631373 0.639216
0.000000 0.635294 0.643137
0.227451 0.643137 0.647059
0.458824 0.654902 0.658824
0.670588 0.670588 0.670588
0.894118 0.686275 0.686275
1.000000 0.698039 0.705882
0.000000 0.894118 0.690196
0.000000 0.898039 0.690196
0.000000 0.901961 0.694118
0.129412 0.909804 0.698039
0.470588 0.925490 0.709804
0.709804 0.941176 0.721569
0.952941 0.956863 0.737255
1.000000 0.976471 0.756863
0.000000 1.000000 0.741176
0.000000 1.000000 0.745098
0.000000 1.000000 0.745098
0.000000 1.000000 0.752941
0.427451 1.000000 0.760784
0.729412 1.000000 0.772549
1.000000 1.000000 0.788235
1.000000 1.000000 0.803922
0.000000 0.000000 0.713725
0.000000 0.000000 0.717647
0.000000 0.000000 0.721569
0.000000 0.000000 0.729412
0.203922 0.000000 0.741176
0.462745 0.000000 0.756863
0.698039 0.000000 0.776471
0.945098 0.000000 0.800000
0.000000 0.000000 0.721569
0.000000 0.000000 0.721569
0.000000 0.000000 0.729412
0.000000 0.000000 0.737255
0.227451 0.000000 0.745098
0.474510 0.000000 0.760784
0.709804 0.000000 0.784314
0.956863 0.000000 0.807843
0.000000 0.090196 0.737255
0.000000 0.090196 0.741176
0.000000 0.094118 0.745098
0.000000 0.090196 0.752941
0.274510 0.070588 0.764706
0.505882 0.003922 0.780392
0.737255 0.000000 0.800000
0.984314 0.000000 0.819608
0.000000 0.231373 0.768627
0.000000 0.235294 0.768627
0.000000 0.239216 0.772549
0.000000 0.243137 0.780392
0.333333 0.247059 0.792157
0.556863 0.247059 0.807843
0.780392 0.231373 0.823529
1.000000 0.188235 0.847059
0.000000 0.411765 0.807843
0.000000 0.415686 0.807843
0.000000 0.419608 0.811765
0.078431 0.427451 0.819608
0.392157 0.435294 0.831373
0.611765 0.443137 0.843137
0.839216 0.450980 0.862745
1.000000 0.447059 0.882353
0.000000 0.635294 0.854902
0.000000 0.635294 0.858824
0.000000 0.643137 0.862745
0.113725 0.650980 0.866667
0.435294 0.662745 0.878431
0.666667 0.674510 0.890196
0.901961 0.690196 0.909804
1.000000 0.698039 0.929412
0.000000 0.901961 0.913725
0.000000 0.901961 0.913725
0.000000 0.909804 0.917647
0.000000 0.917647 0.925490
0.454902 0.929412 0.933333
0.713725 0.945098 0.945098
0.960784 0.960784 0.960784
1.000000 0.980392 0.980392
0.000000 1.000000 0.976471
0.000000 1.000000 0.976471
0.000000 1.000000 0.980392
0.000000 1.000000 0.984314
0.419608 1.000000 0.992157
0.733333 1.000000 1.000000
1.000000 1.000000 1.000000
1.000000 1.000000 1.000000
0.000000 0.000000 0.972549
0.000000 0.000000 0.972549
0.000000 0.000000 0.976471
0.000000 0.000000 0.984314
0.000000 0.000000 0.996078
0.396078 0.000000 1.000000
0.678431 0.000000 1.000000
0.949020 0.000000 1.000000
0.000000 0.000000 0.980392
0.000000 0.000000 0.980392
0.000000 0.000000 0.984314
0.000000 0.000000 0.992157
0.000000 0.000000 1.000000
0.415686 0.000000 1.000000
0.690196 0.000000 1.000000
0.960784 0.000000 1.000000
0.000000 0.086275 0.996078
0.000000 0.086275 0.996078
0.000000 0.082353 1.000000
0.000000 0.070588 1.000000
0.000000 0.039216 1.000000
0.454902 0.000000 1.000000
0.721569 0.000000 1.000000
0.988235 0.000000 1.000000
0.000000 0.235294 1.000000
0.000000 0.239216 1.000000
0.000000 0.239216 1.000000
0.000000 0.243137 1.000000
0.176471 0.247059 1.000000
0.509804 0.239216 1.000000
0.768627 0.219608 1.000000
1.000000 0.164706 1.000000
0.000000 0.419608 1.000000
0.000000 0.419608 1.000000
0.000000 0.423529 1.000000
0.000000 0.431373 1.000000
0.286275 0.439216 1.000000
0.576471 0.447059 1.000000
0.827451 0.450980 1.000000
1.000000 0.447059 1.000000
0.000000 0.643137 1.000000
0.000000 0.643137 1.000000
0.000000 0.647059 1.000000
0.000000 0.654902 1.000000
0.356863 0.666667 1.000000
0.639216 0.678431 1.000000
0.894118 0.690196 1.000000
1.000000 0.701961 1.000000
0.000000 0.909804 1.000000
0.000000 0.909804 1.000000
0.000000 0.917647 1.000000
0.000000 0.925490 1.000000
0.388235 0.937255 1.000000
0.690196 0.949020 1.000000
0.960784 0.968627 1.000000
1.000000 0.984314 1.000000
0.000000 1.000000 1.000000
0.000000 1.000000 1.000000
0.000000 1.000000 1.000000
0.000000 1.000000 1.000000
0.360784 1.000000 1.000000
0.721569 1.000000 1.000000
1.000000 1.000000 1.000000
1.000000 1.000000 1.000000
